
    MODULE Module1
    CONST robtarget Target_home:=[[580.168417117,0,545.58431429],[0.087155735,0,0.996194699,0],[-1,-1,0,0],[9E+09,9E+09,9E+09,9E+09,9E+09,9E+09]];
    CONST robtarget Target_10:=[[13.193,270.75,0],[0.996194698,0,-0.087155743,0],[-1,-1,0,0],[9E+09,9E+09,9E+09,9E+09,9E+09,9E+09]];
    CONST robtarget Target_20:=[[32.615,270.594,0],[0.996194698,0,-0.087155743,0],[-1,-1,0,0],[9E+09,9E+09,9E+09,9E+09,9E+09,9E+09]];
    CONST robtarget Target_30:=[[32.653,270.592,0],[0.996194698,0,-0.087155743,0],[-1,-1,0,0],[9E+09,9E+09,9E+09,9E+09,9E+09,9E+09]];
    CONST robtarget Target_40:=[[42.279,280.512,0],[0.996194698,0,-0.087155743,0],[-1,-1,0,0],[9E+09,9E+09,9E+09,9E+09,9E+09,9E+09]];
    CONST robtarget Target_50:=[[33.084,287.483,0],[0.996194698,0,-0.087155743,0],[-1,-1,0,0],[9E+09,9E+09,9E+09,9E+09,9E+09,9E+09]];
    CONST robtarget Target_60:=[[13.278,283.665,0],[0.996194698,0,-0.087155743,0],[-1,-1,0,0],[9E+09,9E+09,9E+09,9E+09,9E+09,9E+09]];
    CONST robtarget Target_70:=[[13.127,258.282,0],[0.996194698,0,-0.087155743,0],[-1,-1,0,0],[9E+09,9E+09,9E+09,9E+09,9E+09,9E+09]];
    CONST robtarget Target_80:=[[32.201,255.04,0],[0.996194698,0,-0.087155743,0],[-1,-1,0,0],[9E+09,9E+09,9E+09,9E+09,9E+09,9E+09]];
    CONST robtarget Target_90:=[[38.768,247.76,0],[0.996194698,0,-0.087155743,0],[-1,-1,0,0],[9E+09,9E+09,9E+09,9E+09,9E+09,9E+09]];
    CONST robtarget Target_100:=[[32.463,240.757,0],[0.996194698,0,-0.087155743,0],[-1,-1,0,0],[9E+09,9E+09,9E+09,9E+09,9E+09,9E+09]];
    CONST robtarget Target_120:=[[27.458,234.11,0],[0.996194698,0,-0.087155743,0],[-1,-1,0,0],[9E+09,9E+09,9E+09,9E+09,9E+09,9E+09]];
    CONST robtarget Target_130:=[[14.164,222.682,0],[0.996194698,0,-0.087155743,0],[-1,-1,0,0],[9E+09,9E+09,9E+09,9E+09,9E+09,9E+09]];
    CONST robtarget Target_140:=[[28.986,211.179,0],[0.996194698,0,-0.087155743,0],[-1,-1,0,0],[9E+09,9E+09,9E+09,9E+09,9E+09,9E+09]];
    CONST robtarget Target_150:=[[36.927,223.481,0],[0.996194698,0,-0.087155743,0],[-1,-1,0,0],[9E+09,9E+09,9E+09,9E+09,9E+09,9E+09]];
    CONST robtarget Target_160:=[[34.552,220.113,0],[0.996194698,0,-0.087155743,0],[-1,-1,0,0],[9E+09,9E+09,9E+09,9E+09,9E+09,9E+09]];
    CONST robtarget Target_170:=[[34.481,216.457,0],[0.996194698,0,-0.087155743,0],[-1,-1,0,0],[9E+09,9E+09,9E+09,9E+09,9E+09,9E+09]];
    CONST robtarget Target_180:=[[22.776,201.436,0],[0.996194698,0,-0.087155743,0],[-1,-1,0,0],[9E+09,9E+09,9E+09,9E+09,9E+09,9E+09]];
    CONST robtarget Target_190:=[[13.22,194.691,0],[0.996194698,0,-0.087155743,0],[-1,-1,0,0],[9E+09,9E+09,9E+09,9E+09,9E+09,9E+09]];
    CONST robtarget Target_200:=[[21.224,187.089,0],[0.996194698,0,-0.087155743,0],[-1,-1,0,0],[9E+09,9E+09,9E+09,9E+09,9E+09,9E+09]];
    CONST robtarget Target_210:=[[32.645,187.28,0],[0.996194698,0,-0.087155743,0],[-1,-1,0,0],[9E+09,9E+09,9E+09,9E+09,9E+09,9E+09]];
    CONST robtarget Target_220:=[[66.971,284.323,0],[0.996194698,0,-0.087155743,0],[-1,-1,0,0],[9E+09,9E+09,9E+09,9E+09,9E+09,9E+09]];
    CONST robtarget Target_230:=[[53.86,270.722,0],[0.996194698,0,-0.087155743,0],[-1,-1,0,0],[9E+09,9E+09,9E+09,9E+09,9E+09,9E+09]];
    CONST robtarget Target_240:=[[65.42,260.414,0],[0.996194698,0,-0.087155743,0],[-1,-1,0,0],[9E+09,9E+09,9E+09,9E+09,9E+09,9E+09]];
    CONST robtarget Target_250:=[[78.497,272.07,0],[0.996194698,0,-0.087155743,0],[-1,-1,0,0],[9E+09,9E+09,9E+09,9E+09,9E+09,9E+09]];
    CONST robtarget Target_260:=[[76.528,253.626,0],[0.996194698,0,-0.087155743,0],[-1,-1,0,0],[9E+09,9E+09,9E+09,9E+09,9E+09,9E+09]];
    CONST robtarget Target_270:=[[76.548,251.965,0],[0.996194698,0,-0.087155743,0],[-1,-1,0,0],[9E+09,9E+09,9E+09,9E+09,9E+09,9E+09]];
    CONST robtarget Target_280:=[[71.284,242.387,0],[0.996194698,0,-0.087155743,0],[-1,-1,0,0],[9E+09,9E+09,9E+09,9E+09,9E+09,9E+09]];
    CONST robtarget Target_290:=[[64.125,246.842,0],[0.996194698,0,-0.087155743,0],[-1,-1,0,0],[9E+09,9E+09,9E+09,9E+09,9E+09,9E+09]];
    CONST robtarget Target_300:=[[63.954,248.774,0],[0.996194698,0,-0.087155743,0],[-1,-1,0,0],[9E+09,9E+09,9E+09,9E+09,9E+09,9E+09]];
    CONST robtarget Target_310:=[[59.373,253.631,0],[0.996194698,0,-0.087155743,0],[-1,-1,0,0],[9E+09,9E+09,9E+09,9E+09,9E+09,9E+09]];
    CONST robtarget Target_320:=[[55.592,245.98,0],[0.996194698,0,-0.087155743,0],[-1,-1,0,0],[9E+09,9E+09,9E+09,9E+09,9E+09,9E+09]];
    CONST robtarget Target_360:=[[75.496,226.856,0],[0.996194698,0,-0.087155743,0],[-1,-1,0,0],[9E+09,9E+09,9E+09,9E+09,9E+09,9E+09]];
    CONST robtarget Target_370:=[[65.978,234.525,0],[0.996194698,0,-0.087155743,0],[-1,-1,0,0],[9E+09,9E+09,9E+09,9E+09,9E+09,9E+09]];
    CONST robtarget Target_380:=[[55.218,226.687,0],[0.996194698,0,-0.087155743,0],[-1,-1,0,0],[9E+09,9E+09,9E+09,9E+09,9E+09,9E+09]];
    CONST robtarget Target_390:=[[54.939,235.697,0],[0.996194698,0,-0.087155743,0],[-1,-1,0,0],[9E+09,9E+09,9E+09,9E+09,9E+09,9E+09]];
    CONST robtarget Target_400:=[[74.63,216.134,0],[0,0,1,0],[-1,-1,0,0],[9E+09,9E+09,9E+09,9E+09,9E+09,9E+09]];
    CONST robtarget Target_410:=[[74.667,204.62,0],[0.996194698,0,-0.087155743,0],[-1,-1,0,0],[9E+09,9E+09,9E+09,9E+09,9E+09,9E+09]];
    CONST robtarget Target_420:=[[64.175,215.583,0],[0.996194698,0,-0.087155743,0],[-1,-1,0,0],[9E+09,9E+09,9E+09,9E+09,9E+09,9E+09]];
    CONST robtarget Target_430:=[[54.664,204.706,0],[0.996194698,0,-0.087155743,0],[-1,-1,0,0],[9E+09,9E+09,9E+09,9E+09,9E+09,9E+09]];
    CONST robtarget Target_440:=[[63.723,193.782,0],[0.996194698,0,-0.087155743,0],[-1,-1,0,0],[9E+09,9E+09,9E+09,9E+09,9E+09,9E+09]];
    PERS tooldata Marcador:=[TRUE,[[79.036,0,130.937],[0.906307787,0,0.422618262,0]],[1,[0,0,1],[1,0,0,0],0,0,0]];
    TASK PERS wobjdata Workobject_3:=[FALSE,TRUE,"",[[-2,65,434],[0.707106781,0,0,-0.707106781]],[[850,-150,120],[0,0,1,0]]];
    CONST robtarget Target_450:=[[108.237306818,240.536085941,-22.996397958],[0.745585937,0.025317887,-0.093633936,0.659312749],[-1,0,-1,0],[9E+09,9E+09,9E+09,9E+09,9E+09,9E+09]];
    CONST robtarget Target_460:=[[72.53,184.058,0],[0.996194698,0,-0.087155743,0],[-1,-1,0,0],[9E+09,9E+09,9E+09,9E+09,9E+09,9E+09]];
    CONST robtarget Target_470:=[[57.443,184.811,0],[0.996194698,0,-0.087155743,0],[-1,-1,0,0],[9E+09,9E+09,9E+09,9E+09,9E+09,9E+09]];
    CONST robtarget Target_480:=[[55.423,188.997,0],[0.996194698,0,-0.087155743,0],[-1,-1,0,0],[9E+09,9E+09,9E+09,9E+09,9E+09,9E+09]];
    CONST robtarget Target_490:=[[55.055,179.618,0],[0.996194698,0,-0.087155743,0],[-1,-1,0,0],[9E+09,9E+09,9E+09,9E+09,9E+09,9E+09]];
    CONST robtarget Target_500:=[[54.724,180.814,0],[0.996194698,0,-0.087155743,0],[-1,-1,0,0],[9E+09,9E+09,9E+09,9E+09,9E+09,9E+09]];
    CONST robtarget Target_520:=[[72.743,194.265,0],[0.996194698,0,-0.087155743,0],[-1,-1,0,0],[9E+09,9E+09,9E+09,9E+09,9E+09,9E+09]];
    CONST robtarget Target_510:=[[65.135,193.749,0],[0.996194698,0,-0.087155743,0],[-2,0,-1,0],[9E+09,9E+09,9E+09,9E+09,9E+09,9E+09]];
    CONST robtarget Target_530:=[[111.101,280.145,0],[0.996194698,0,-0.087155743,0],[-1,-1,0,0],[9E+09,9E+09,9E+09,9E+09,9E+09,9E+09]];
    CONST robtarget Target_540:=[[86.408,270.933,0],[0.996194698,0,-0.087155743,0],[-1,-1,0,0],[9E+09,9E+09,9E+09,9E+09,9E+09,9E+09]];
    CONST robtarget Target_550:=[[110.811,257.246,0],[0.996194698,0,-0.087155743,0],[-1,-1,0,0],[9E+09,9E+09,9E+09,9E+09,9E+09,9E+09]];
    CONST robtarget Target_560:=[[97.969,263.198,0],[0.996194698,0,-0.087155743,0],[-1,-1,0,0],[9E+09,9E+09,9E+09,9E+09,9E+09,9E+09]];
    CONST robtarget Target_570:=[[97.614,275.586,0],[0.996194698,0,-0.087155743,0],[-1,-1,0,0],[9E+09,9E+09,9E+09,9E+09,9E+09,9E+09]];
    CONST robtarget Target_580:=[[87.777,254.026,0],[0.996194698,0,-0.087155743,0],[-1,-1,0,0],[9E+09,9E+09,9E+09,9E+09,9E+09,9E+09]];
    CONST robtarget Target_590:=[[110.036,254.172,0],[0.996194698,0,-0.087155743,0],[-1,-1,0,0],[9E+09,9E+09,9E+09,9E+09,9E+09,9E+09]];
    CONST robtarget Target_600:=[[96.166,239.843,0],[0.996194698,0,-0.087155743,0],[-1,-1,0,0],[9E+09,9E+09,9E+09,9E+09,9E+09,9E+09]];
    CONST robtarget Target_610:=[[94.91,231.651,0],[0.996194698,0,-0.087155743,0],[-1,-1,0,0],[9E+09,9E+09,9E+09,9E+09,9E+09,9E+09]];
    CONST robtarget Target_620:=[[87.846,233.823,0],[0.996194698,0,-0.087155743,0],[-1,-1,0,0],[9E+09,9E+09,9E+09,9E+09,9E+09,9E+09]];
    CONST robtarget Target_630:=[[86.999,245.15,0],[0.996194698,0,-0.087155743,0],[-1,-1,0,0],[9E+09,9E+09,9E+09,9E+09,9E+09,9E+09]];
    CONST robtarget Target_640:=[[96.929,248.033,0],[0.996194698,0,-0.087155743,0],[-1,-1,0,0],[9E+09,9E+09,9E+09,9E+09,9E+09,9E+09]];
    CONST robtarget Target_650:=[[108.283,243.822,0],[0.996194698,0,-0.087155743,0],[-1,-1,0,0],[9E+09,9E+09,9E+09,9E+09,9E+09,9E+09]];
    CONST robtarget Target_660:=[[106.824,231.37,0],[0.996194698,0,-0.087155743,0],[-1,-1,0,0],[9E+09,9E+09,9E+09,9E+09,9E+09,9E+09]];
    CONST robtarget Target_670:=[[101.401,226.32,0],[0.996194698,0,-0.087155743,0],[-1,-1,0,0],[9E+09,9E+09,9E+09,9E+09,9E+09,9E+09]];
    CONST robtarget Target_680:=[[107.323,218.024,0],[0.996194698,0,-0.087155743,0],[-1,-1,0,0],[9E+09,9E+09,9E+09,9E+09,9E+09,9E+09]];
    CONST robtarget Target_690:=[[100.207,210.257,0],[0.996194698,0,-0.087155743,0],[-1,-1,0,0],[9E+09,9E+09,9E+09,9E+09,9E+09,9E+09]];
    CONST robtarget Target_700:=[[87.263,210.572,0],[0.996194698,0,-0.087155743,0],[-1,-1,0,0],[9E+09,9E+09,9E+09,9E+09,9E+09,9E+09]];
    CONST robtarget Target_710:=[[95.841,203.947,0],[0.996194698,0,-0.087155743,0],[-1,-1,0,0],[9E+09,9E+09,9E+09,9E+09,9E+09,9E+09]];
    CONST robtarget Target_720:=[[86.762,195.516,0],[0.996194698,0,-0.087155743,0],[-1,-1,0,0],[9E+09,9E+09,9E+09,9E+09,9E+09,9E+09]];
    CONST robtarget Target_730:=[[96.351,187.532,0],[0.996194698,0,-0.087155743,0],[-1,-1,0,0],[9E+09,9E+09,9E+09,9E+09,9E+09,9E+09]];
    CONST robtarget Target_740:=[[105.193,195.36,0],[0.996194698,0,-0.087155743,0],[-1,-1,0,0],[9E+09,9E+09,9E+09,9E+09,9E+09,9E+09]];
    CONST robtarget Target_750:=[[133.318,73.108,0],[0.996194698,0,-0.087155743,0],[-1,-1,0,0],[9E+09,9E+09,9E+09,9E+09,9E+09,9E+09]];
    CONST robtarget Target_760:=[[134.531,67.215,0],[0.996194698,0,-0.087155743,0],[-1,-1,0,0],[9E+09,9E+09,9E+09,9E+09,9E+09,9E+09]];
    CONST robtarget Target_770:=[[134.421,62.131,0],[0.996194698,0,-0.087155743,0],[-1,-1,0,0],[9E+09,9E+09,9E+09,9E+09,9E+09,9E+09]];
    CONST robtarget Target_780:=[[132.701,57.049,0],[0.996194698,0,-0.087155743,0],[-1,-1,0,0],[9E+09,9E+09,9E+09,9E+09,9E+09,9E+09]];
    CONST robtarget Target_790:=[[127.975,49.818,0],[0.996194698,0,-0.087155743,0],[-1,-1,0,0],[9E+09,9E+09,9E+09,9E+09,9E+09,9E+09]];
    CONST robtarget Target_800:=[[124.622,44.184,0],[0.996194698,0,-0.087155743,0],[-1,-1,0,0],[9E+09,9E+09,9E+09,9E+09,9E+09,9E+09]];
    CONST robtarget Target_810:=[[119.379,38.803,0],[0.996194698,0,-0.087155743,0],[-1,-1,0,0],[9E+09,9E+09,9E+09,9E+09,9E+09,9E+09]];
    CONST robtarget Target_820:=[[116.346,36.106,0],[0.996194698,0,-0.087155743,0],[-1,-1,0,0],[9E+09,9E+09,9E+09,9E+09,9E+09,9E+09]];
    CONST robtarget Target_830:=[[110.321,33.121,0],[0.996194698,0,-0.087155743,0],[-1,-1,0,0],[9E+09,9E+09,9E+09,9E+09,9E+09,9E+09]];
    CONST robtarget Target_840:=[[107.814,30.148,0],[0.996194698,0,-0.087155743,0],[-1,-1,0,0],[9E+09,9E+09,9E+09,9E+09,9E+09,9E+09]];
    CONST robtarget Target_850:=[[102.552,25.806,0],[0.996194698,0,-0.087155743,0],[-1,-1,0,0],[9E+09,9E+09,9E+09,9E+09,9E+09,9E+09]];
    CONST robtarget Target_860:=[[96.539,25.226,0],[0.996194698,0,-0.087155743,0],[-1,-1,0,0],[9E+09,9E+09,9E+09,9E+09,9E+09,9E+09]];
    CONST robtarget Target_870:=[[92.373,22.226,0],[0.996194698,0,-0.087155743,0],[-1,-1,0,0],[9E+09,9E+09,9E+09,9E+09,9E+09,9E+09]];
    CONST robtarget Target_880:=[[85.747,20.012,0],[0.996194698,0,-0.087155743,0],[-1,-1,0,0],[9E+09,9E+09,9E+09,9E+09,9E+09,9E+09]];
    CONST robtarget Target_890:=[[79.392,18.606,0],[0.996194698,0,-0.087155743,0],[-1,-1,0,0],[9E+09,9E+09,9E+09,9E+09,9E+09,9E+09]];
    CONST robtarget Target_900:=[[73.565,16.929,0],[0.996194698,0,-0.087155743,0],[-1,-1,0,0],[9E+09,9E+09,9E+09,9E+09,9E+09,9E+09]];
    CONST robtarget Target_910:=[[67.479,16.876,0],[0.996194698,0,-0.087155743,0],[-1,-1,0,0],[9E+09,9E+09,9E+09,9E+09,9E+09,9E+09]];
    CONST robtarget Target_920:=[[61.122,17.91,0],[0.996194698,0,-0.087155743,0],[-1,-1,0,0],[9E+09,9E+09,9E+09,9E+09,9E+09,9E+09]];
    CONST robtarget Target_930:=[[56.707,19.509,0],[0.996194698,0,-0.087155743,0],[-1,-1,0,0],[9E+09,9E+09,9E+09,9E+09,9E+09,9E+09]];
    CONST robtarget Target_940:=[[133.347,72.966,0],[0.996194698,0,-0.087155743,0],[-1,-1,0,0],[9E+09,9E+09,9E+09,9E+09,9E+09,9E+09]];
    CONST robtarget Target_950:=[[129.213,69.645,0],[0.996194698,0,-0.087155743,0],[-1,-1,0,0],[9E+09,9E+09,9E+09,9E+09,9E+09,9E+09]];
    CONST robtarget Target_960:=[[125.656,66.978,0],[0.996194698,0,-0.087155743,0],[-1,-1,0,0],[9E+09,9E+09,9E+09,9E+09,9E+09,9E+09]];
    CONST robtarget Target_970:=[[120.796,66.727,0],[0.996194698,0,-0.087155743,0],[-1,-1,0,0],[9E+09,9E+09,9E+09,9E+09,9E+09,9E+09]];
    CONST robtarget Target_980:=[[116.171,65.398,0],[0.996194698,0,-0.087155743,0],[-1,-1,0,0],[9E+09,9E+09,9E+09,9E+09,9E+09,9E+09]];
    CONST robtarget Target_990:=[[110.186,64.34,0],[0.996194698,0,-0.087155743,0],[-1,-1,0,0],[9E+09,9E+09,9E+09,9E+09,9E+09,9E+09]];
    CONST robtarget Target_1000:=[[104.455,63.278,0],[0.996194698,0,-0.087155743,0],[-1,-1,0,0],[9E+09,9E+09,9E+09,9E+09,9E+09,9E+09]];
    CONST robtarget Target_1010:=[[99.928,68.147,0],[0.996194698,0,-0.087155743,0],[-1,-1,0,0],[9E+09,9E+09,9E+09,9E+09,9E+09,9E+09]];
    CONST robtarget Target_1020:=[[101.802,66.522,0],[0.996194698,0,-0.087155743,0],[-1,-1,0,0],[9E+09,9E+09,9E+09,9E+09,9E+09,9E+09]];
    CONST robtarget Target_1030:=[[104.455,63.278,0],[0.996194698,0,-0.087155743,0],[-1,-1,0,0],[9E+09,9E+09,9E+09,9E+09,9E+09,9E+09]];
    CONST robtarget Target_1040:=[[110.186,64.34,0],[0.996194698,0,-0.087155743,0],[-1,-1,0,0],[9E+09,9E+09,9E+09,9E+09,9E+09,9E+09]];
    CONST robtarget Target_1050:=[[110.186,64.34,0],[0.996194698,0,-0.087155743,0],[-1,-1,0,0],[9E+09,9E+09,9E+09,9E+09,9E+09,9E+09]];
    CONST robtarget Target_1060:=[[100.146,53.036,0],[0.996194698,0,-0.087155743,0],[-1,-1,0,0],[9E+09,9E+09,9E+09,9E+09,9E+09,9E+09]];
    CONST robtarget Target_1070:=[[95.707,49.795,0],[0.996194698,0,-0.087155743,0],[-1,-1,0,0],[9E+09,9E+09,9E+09,9E+09,9E+09,9E+09]];
    CONST robtarget Target_1090:=[[95.707,49.795,0],[0.996194698,0,-0.087155743,0],[-1,-1,0,0],[9E+09,9E+09,9E+09,9E+09,9E+09,9E+09]];
    CONST robtarget Target_1100:=[[97.179,54.656,0],[0.996194698,0,-0.087155743,0],[-1,-1,0,0],[9E+09,9E+09,9E+09,9E+09,9E+09,9E+09]];
    CONST robtarget Target_1110:=[[97.552,59.246,0],[0.996194698,0,-0.087155743,0],[-1,-1,0,0],[9E+09,9E+09,9E+09,9E+09,9E+09,9E+09]];
    CONST robtarget Target_1120:=[[99.928,68.147,0],[0.996194698,0,-0.087155743,0],[-1,-1,0,0],[9E+09,9E+09,9E+09,9E+09,9E+09,9E+09]];
    CONST robtarget Target_1130:=[[92.224,65.743,0],[0.996194698,0,-0.087155743,0],[-1,-1,0,0],[9E+09,9E+09,9E+09,9E+09,9E+09,9E+09]];
    CONST robtarget Target_1140:=[[87.839,65.757,0],[0.996194698,0,-0.087155743,0],[-1,-1,0,0],[9E+09,9E+09,9E+09,9E+09,9E+09,9E+09]];
    CONST robtarget Target_1150:=[[83.169,65.771,0],[0.996194698,0,-0.087155743,0],[-1,-1,0,0],[9E+09,9E+09,9E+09,9E+09,9E+09,9E+09]];
    CONST robtarget Target_1160:=[[79.304,65.241,0],[0.996194698,0,-0.087155743,0],[-1,-1,0,0],[9E+09,9E+09,9E+09,9E+09,9E+09,9E+09]];
    CONST robtarget Target_1170:=[[74.862,63.897,0],[0.996194698,0,-0.087155743,0],[-1,-1,0,0],[9E+09,9E+09,9E+09,9E+09,9E+09,9E+09]];
    CONST robtarget Target_1180:=[[69.58,62.552,0],[0.996194698,0,-0.087155743,0],[-1,-1,0,0],[9E+09,9E+09,9E+09,9E+09,9E+09,9E+09]];
    CONST robtarget Target_1190:=[[66.184,59.296,0],[0.996194698,0,-0.087155743,0],[-1,-1,0,0],[9E+09,9E+09,9E+09,9E+09,9E+09,9E+09]];
    CONST robtarget Target_1200:=[[61.424,57.397,0],[0.996194698,0,-0.087155743,0],[-1,-1,0,0],[9E+09,9E+09,9E+09,9E+09,9E+09,9E+09]];
    CONST robtarget Target_1210:=[[58.857,54.402,0],[0.996194698,0,-0.087155743,0],[-1,-1,0,0],[9E+09,9E+09,9E+09,9E+09,9E+09,9E+09]];
    CONST robtarget Target_1220:=[[55.984,50.312,0],[0.996194698,0,-0.087155743,0],[-1,-1,0,0],[9E+09,9E+09,9E+09,9E+09,9E+09,9E+09]];
    CONST robtarget Target_1230:=[[52.81,45.398,0],[0.996194698,0,-0.087155743,0],[-1,-1,0,0],[9E+09,9E+09,9E+09,9E+09,9E+09,9E+09]];
    CONST robtarget Target_1240:=[[49.638,40.75,0],[0.996194698,0,-0.087155743,0],[-1,-1,0,0],[9E+09,9E+09,9E+09,9E+09,9E+09,9E+09]];
    CONST robtarget Target_1250:=[[47.592,36.646,0],[0.996194698,0,-0.087155743,0],[-1,-1,0,0],[9E+09,9E+09,9E+09,9E+09,9E+09,9E+09]];
    CONST robtarget Target_1260:=[[46.931,31.999,0],[0.996194698,0,-0.087155743,0],[-1,-1,0,0],[9E+09,9E+09,9E+09,9E+09,9E+09,9E+09]];
    CONST robtarget Target_1270:=[[48.497,26.817,0],[0.996194698,0,-0.087155743,0],[-1,-1,0,0],[9E+09,9E+09,9E+09,9E+09,9E+09,9E+09]];
    CONST robtarget Target_1280:=[[50.928,23.011,0],[0.996194698,0,-0.087155743,0],[-1,-1,0,0],[9E+09,9E+09,9E+09,9E+09,9E+09,9E+09]];
    CONST robtarget Target_1290:=[[54.182,18.67,0],[0.996194698,0,-0.087155743,0],[-1,-1,0,0],[9E+09,9E+09,9E+09,9E+09,9E+09,9E+09]];
    CONST robtarget Target_1300:=[[52.03,18.569,0],[0.996194698,0,-0.087155743,0],[-1,-1,0,0],[9E+09,9E+09,9E+09,9E+09,9E+09,9E+09]];
    CONST robtarget Target_1310:=[[48.205,19.883,0],[0.996194698,0,-0.087155743,0],[-1,-1,0,0],[9E+09,9E+09,9E+09,9E+09,9E+09,9E+09]];
    CONST robtarget Target_1320:=[[43.327,23.887,0],[0.996194698,0,-0.087155743,0],[-1,-1,0,0],[9E+09,9E+09,9E+09,9E+09,9E+09,9E+09]];
    CONST robtarget Target_1330:=[[38.99,27.904,0],[0.996194698,0,-0.087155743,0],[-1,-1,0,0],[9E+09,9E+09,9E+09,9E+09,9E+09,9E+09]];
    CONST robtarget Target_1340:=[[38.825,33.03,0],[0.996194698,0,-0.087155743,0],[-1,-1,0,0],[9E+09,9E+09,9E+09,9E+09,9E+09,9E+09]];
    CONST robtarget Target_1350:=[[38.671,38.696,0],[0.996194698,0,-0.087155743,0],[-1,-1,0,0],[9E+09,9E+09,9E+09,9E+09,9E+09,9E+09]];
    CONST robtarget Target_1360:=[[40.743,44.906,0],[0.996194698,0,-0.087155743,0],[-1,-1,0,0],[9E+09,9E+09,9E+09,9E+09,9E+09,9E+09]];
    CONST robtarget Target_1370:=[[42.772,49.224,0],[0.996194698,0,-0.087155743,0],[-1,-1,0,0],[9E+09,9E+09,9E+09,9E+09,9E+09,9E+09]];
    CONST robtarget Target_1380:=[[44.282,55.155,0],[0.996194698,0,-0.087155743,0],[-1,-1,0,0],[9E+09,9E+09,9E+09,9E+09,9E+09,9E+09]];
    CONST robtarget Target_1390:=[[47.968,59.73,0],[0.996194698,0,-0.087155743,0],[-1,-1,0,0],[9E+09,9E+09,9E+09,9E+09,9E+09,9E+09]];
    CONST robtarget Target_1400:=[[51.115,65.107,0],[0.996194698,0,-0.087155743,0],[-1,-1,0,0],[9E+09,9E+09,9E+09,9E+09,9E+09,9E+09]];
    CONST robtarget Target_1410:=[[53.117,68.597,0],[0.996194698,0,-0.087155743,0],[-1,-1,0,0],[9E+09,9E+09,9E+09,9E+09,9E+09,9E+09]];
    CONST robtarget Target_1420:=[[55.666,72.082,0],[0.996194698,0,-0.087155743,0],[-1,-1,0,0],[9E+09,9E+09,9E+09,9E+09,9E+09,9E+09]];
    CONST robtarget Target_1430:=[[59.064,76.901,0],[0.996194698,0,-0.087155743,0],[-1,-1,0,0],[9E+09,9E+09,9E+09,9E+09,9E+09,9E+09]];
    CONST robtarget Target_1440:=[[52.906,71.557,0],[0.996194698,0,-0.087155743,0],[-1,-1,0,0],[9E+09,9E+09,9E+09,9E+09,9E+09,9E+09]];
    CONST robtarget Target_1450:=[[52.163,75.328,0],[0.996194698,0,-0.087155743,0],[-1,-1,0,0],[9E+09,9E+09,9E+09,9E+09,9E+09,9E+09]];
    CONST robtarget Target_1460:=[[50.88,79.641,0],[0.996194698,0,-0.087155743,0],[-1,-1,0,0],[9E+09,9E+09,9E+09,9E+09,9E+09,9E+09]];
    CONST robtarget Target_1470:=[[47.914,82.624,0],[0.996194698,0,-0.087155743,0],[-1,-1,0,0],[9E+09,9E+09,9E+09,9E+09,9E+09,9E+09]];
    CONST robtarget Target_1480:=[[45.232,86.148,0],[0.996194698,0,-0.087155743,0],[-1,-1,0,0],[9E+09,9E+09,9E+09,9E+09,9E+09,9E+09]];
    CONST robtarget Target_1490:=[[39.844,92.67,0],[0.996194698,0,-0.087155743,0],[-1,-1,0,0],[9E+09,9E+09,9E+09,9E+09,9E+09,9E+09]];
    CONST robtarget Target_1500:=[[37.428,96.205,0],[0.996194698,0,-0.087155743,0],[-1,-1,0,0],[9E+09,9E+09,9E+09,9E+09,9E+09,9E+09]];
    CONST robtarget Target_1510:=[[33.922,100.838,0],[0.996194698,0,-0.087155743,0],[-1,-1,0,0],[9E+09,9E+09,9E+09,9E+09,9E+09,9E+09]];
    CONST robtarget Target_1520:=[[40.733,95.361,0],[0.996194698,0,-0.087155743,0],[-1,-1,0,0],[9E+09,9E+09,9E+09,9E+09,9E+09,9E+09]];
    CONST robtarget Target_1530:=[[43.427,92.096,0],[0.996194698,0,-0.087155743,0],[-1,-1,0,0],[9E+09,9E+09,9E+09,9E+09,9E+09,9E+09]];
    CONST robtarget Target_1540:=[[48.348,89.894,0],[0.996194698,0,-0.087155743,0],[-1,-1,0,0],[9E+09,9E+09,9E+09,9E+09,9E+09,9E+09]];
    CONST robtarget Target_1550:=[[45.989,95.575,0],[0.996194698,0,-0.087155743,0],[-1,-1,0,0],[9E+09,9E+09,9E+09,9E+09,9E+09,9E+09]];
    CONST robtarget Target_1560:=[[44.72,100.711,0],[0.996194698,0,-0.087155743,0],[-1,-1,0,0],[9E+09,9E+09,9E+09,9E+09,9E+09,9E+09]];
    CONST robtarget Target_1570:=[[43.726,105.848,0],[0.996194698,0,-0.087155743,0],[-1,-1,0,0],[9E+09,9E+09,9E+09,9E+09,9E+09,9E+09]];
    CONST robtarget Target_1580:=[[43.02,111.522,0],[0.996194698,0,-0.087155743,0],[-1,-1,0,0],[9E+09,9E+09,9E+09,9E+09,9E+09,9E+09]];
    CONST robtarget Target_1590:=[[42.844,116.111,0],[0.996194698,0,-0.087155743,0],[-1,-1,0,0],[9E+09,9E+09,9E+09,9E+09,9E+09,9E+09]];
    CONST robtarget Target_1600:=[[42.149,122.328,0],[0.996194698,0,-0.087155743,0],[-1,-1,0,0],[9E+09,9E+09,9E+09,9E+09,9E+09,9E+09]];
    CONST robtarget Target_1610:=[[43.114,115.837,0],[0.996194698,0,-0.087155743,0],[-1,-1,0,0],[9E+09,9E+09,9E+09,9E+09,9E+09,9E+09]];
    CONST robtarget Target_1620:=[[44.931,110.416,0],[0.996194698,0,-0.087155743,0],[-1,-1,0,0],[9E+09,9E+09,9E+09,9E+09,9E+09,9E+09]];
    CONST robtarget Target_1630:=[[46.211,105.815,0],[0.996194698,0,-0.087155743,0],[-1,-1,0,0],[9E+09,9E+09,9E+09,9E+09,9E+09,9E+09]];
    CONST robtarget Target_1640:=[[48.84,99.855,0],[0.996194698,0,-0.087155743,0],[-1,-1,0,0],[9E+09,9E+09,9E+09,9E+09,9E+09,9E+09]];
    CONST robtarget Target_1650:=[[52.034,94.704,0],[0.996194698,0,-0.087155743,0],[-1,-1,0,0],[9E+09,9E+09,9E+09,9E+09,9E+09,9E+09]];
    CONST robtarget Target_1660:=[[51.141,96.144,0],[0.996194698,0,-0.087155743,0],[-1,-1,0,0],[9E+09,9E+09,9E+09,9E+09,9E+09,9E+09]];
    CONST robtarget Target_1670:=[[50.763,99.563,0],[0.996194698,0,-0.087155743,0],[-1,-1,0,0],[9E+09,9E+09,9E+09,9E+09,9E+09,9E+09]];
    CONST robtarget Target_1680:=[[51.401,103.594,0],[0.996194698,0,-0.087155743,0],[-1,-1,0,0],[9E+09,9E+09,9E+09,9E+09,9E+09,9E+09]];
    CONST robtarget Target_1690:=[[51.776,108.166,0],[0.996194698,0,-0.087155743,0],[-1,-1,0,0],[9E+09,9E+09,9E+09,9E+09,9E+09,9E+09]];
    CONST robtarget Target_1700:=[[51.301,111.672,0],[0.996194698,0,-0.087155743,0],[-1,-1,0,0],[9E+09,9E+09,9E+09,9E+09,9E+09,9E+09]];
    CONST robtarget Target_1710:=[[52.513,116.769,0],[0.996194698,0,-0.087155743,0],[-1,-1,0,0],[9E+09,9E+09,9E+09,9E+09,9E+09,9E+09]];
    CONST robtarget Target_1720:=[[52.893,121.607,0],[0.996194698,0,-0.087155743,0],[-1,-1,0,0],[9E+09,9E+09,9E+09,9E+09,9E+09,9E+09]];
    CONST robtarget Target_1730:=[[54.397,127.501,0],[0.996194698,0,-0.087155743,0],[-1,-1,0,0],[9E+09,9E+09,9E+09,9E+09,9E+09,9E+09]];
    CONST robtarget Target_1740:=[[55.607,132.59,0],[0.996194698,0,-0.087155743,0],[-1,-1,0,0],[9E+09,9E+09,9E+09,9E+09,9E+09,9E+09]];
    CONST robtarget Target_1750:=[[56.519,136.607,0],[0.996194698,0,-0.087155743,0],[-1,-1,0,0],[9E+09,9E+09,9E+09,9E+09,9E+09,9E+09]];
    CONST robtarget Target_1760:=[[58.498,139.255,0],[0.996194698,0,-0.087155743,0],[-1,-1,0,0],[9E+09,9E+09,9E+09,9E+09,9E+09,9E+09]];
    CONST robtarget Target_1770:=[[60.488,142.437,0],[0.996194698,0,-0.087155743,0],[-1,-1,0,0],[9E+09,9E+09,9E+09,9E+09,9E+09,9E+09]];
    CONST robtarget Target_1780:=[[61.916,145.092,0],[0.996194698,0,-0.087155743,0],[-1,-1,0,0],[9E+09,9E+09,9E+09,9E+09,9E+09,9E+09]];
    CONST robtarget Target_1790:=[[64.153,147.189,0],[0.996194698,0,-0.087155743,0],[-1,-1,0,0],[9E+09,9E+09,9E+09,9E+09,9E+09,9E+09]];
    CONST robtarget Target_1800:=[[66.684,150.35,0],[0.996194698,0,-0.087155743,0],[-1,-1,0,0],[9E+09,9E+09,9E+09,9E+09,9E+09,9E+09]];
    CONST robtarget Target_1810:=[[69.746,152.958,0],[0.996194698,0,-0.087155743,0],[-1,-1,0,0],[9E+09,9E+09,9E+09,9E+09,9E+09,9E+09]];
    CONST robtarget Target_1820:=[[72.78,154.491,0],[0.996194698,0,-0.087155743,0],[-1,-1,0,0],[9E+09,9E+09,9E+09,9E+09,9E+09,9E+09]];
    CONST robtarget Target_1830:=[[75.254,155.501,0],[0.996194698,0,-0.087155743,0],[-1,-1,0,0],[9E+09,9E+09,9E+09,9E+09,9E+09,9E+09]];
    CONST robtarget Target_1840:=[[78.534,156.22,0],[0.996194698,0,-0.087155743,0],[-1,-1,0,0],[9E+09,9E+09,9E+09,9E+09,9E+09,9E+09]];
    CONST robtarget Target_1850:=[[82.641,157.72,0],[0.996194698,0,-0.087155743,0],[-1,-1,0,0],[9E+09,9E+09,9E+09,9E+09,9E+09,9E+09]];
    CONST robtarget Target_1860:=[[85.621,157.643,0],[0.996194698,0,-0.087155743,0],[-1,-1,0,0],[9E+09,9E+09,9E+09,9E+09,9E+09,9E+09]];
    CONST robtarget Target_1870:=[[91.052,158.569,0],[0.996194698,0,-0.087155743,0],[-1,-1,0,0],[9E+09,9E+09,9E+09,9E+09,9E+09,9E+09]];
    CONST robtarget Target_1880:=[[96.159,157.636,0],[0.996194698,0,-0.087155743,0],[-1,-1,0,0],[9E+09,9E+09,9E+09,9E+09,9E+09,9E+09]];
    CONST robtarget Target_1890:=[[99.921,157.273,0],[0.996194698,0,-0.087155743,0],[-1,-1,0,0],[9E+09,9E+09,9E+09,9E+09,9E+09,9E+09]];
    CONST robtarget Target_1900:=[[103.955,157.434,0],[0.996194698,0,-0.087155743,0],[-1,-1,0,0],[9E+09,9E+09,9E+09,9E+09,9E+09,9E+09]];
    CONST robtarget Target_1910:=[[106.916,157.889,0],[0.996194698,0,-0.087155743,0],[-1,-1,0,0],[9E+09,9E+09,9E+09,9E+09,9E+09,9E+09]];
    CONST robtarget Target_1920:=[[110.744,161.506,0],[0.996194698,0,-0.087155743,0],[-1,-1,0,0],[9E+09,9E+09,9E+09,9E+09,9E+09,9E+09]];
    CONST robtarget Target_1930:=[[113.753,164.608,0],[0.996194698,0,-0.087155743,0],[-1,-1,0,0],[9E+09,9E+09,9E+09,9E+09,9E+09,9E+09]];
    CONST robtarget Target_1940:=[[116.468,166.653,0],[0.996194698,0,-0.087155743,0],[-1,-1,0,0],[9E+09,9E+09,9E+09,9E+09,9E+09,9E+09]];
    CONST robtarget Target_1950:=[[120.996,166.525,0],[0.996194698,0,-0.087155743,0],[-1,-1,0,0],[9E+09,9E+09,9E+09,9E+09,9E+09,9E+09]];
    CONST robtarget Target_1960:=[[125.768,165.861,0],[0.996194698,0,-0.087155743,0],[-1,-1,0,0],[9E+09,9E+09,9E+09,9E+09,9E+09,9E+09]];
    CONST robtarget Target_1970:=[[128.375,163.673,0],[0.996194698,0,-0.087155743,0],[-1,-1,0,0],[9E+09,9E+09,9E+09,9E+09,9E+09,9E+09]];
    CONST robtarget Target_1980:=[[130.955,160.432,0],[0.996194698,0,-0.087155743,0],[-1,-1,0,0],[9E+09,9E+09,9E+09,9E+09,9E+09,9E+09]];
    CONST robtarget Target_1990:=[[135.664,157.931,0],[0.996194698,0,-0.087155743,0],[-1,-1,0,0],[9E+09,9E+09,9E+09,9E+09,9E+09,9E+09]];
    CONST robtarget Target_2000:=[[137.432,154.193,0],[0.996194698,0,-0.087155743,0],[-1,-1,0,0],[9E+09,9E+09,9E+09,9E+09,9E+09,9E+09]];
    CONST robtarget Target_2010:=[[140,150.965,0],[0.996194698,0,-0.087155743,0],[-1,-1,0,0],[9E+09,9E+09,9E+09,9E+09,9E+09,9E+09]];
    CONST robtarget Target_2020:=[[142.268,146.169,0],[0.996194698,0,-0.087155743,0],[-1,-1,0,0],[9E+09,9E+09,9E+09,9E+09,9E+09,9E+09]];
    CONST robtarget Target_2030:=[[145.339,142.15,0],[0.996194698,0,-0.087155743,0],[-1,-1,0,0],[9E+09,9E+09,9E+09,9E+09,9E+09,9E+09]];
    CONST robtarget Target_2040:=[[148.085,135.514,0],[0.996194698,0,-0.087155743,0],[-1,-1,0,0],[9E+09,9E+09,9E+09,9E+09,9E+09,9E+09]];
    CONST robtarget Target_2050:=[[145.704,134.774,0],[0.996194698,0,-0.087155743,0],[-1,-1,0,0],[9E+09,9E+09,9E+09,9E+09,9E+09,9E+09]];
    CONST robtarget Target_2060:=[[148.308,133.669,0],[0.996194698,0,-0.087155743,0],[-1,-1,0,0],[9E+09,9E+09,9E+09,9E+09,9E+09,9E+09]];
    CONST robtarget Target_2070:=[[150.902,132.303,0],[0.996194698,0,-0.087155743,0],[-1,-1,0,0],[9E+09,9E+09,9E+09,9E+09,9E+09,9E+09]];
    CONST robtarget Target_2080:=[[153.714,129.096,0],[0.996194698,0,-0.087155743,0],[-1,-1,0,0],[9E+09,9E+09,9E+09,9E+09,9E+09,9E+09]];
    CONST robtarget Target_2090:=[[155.506,127.224,0],[0.996194698,0,-0.087155743,0],[-1,-1,0,0],[9E+09,9E+09,9E+09,9E+09,9E+09,9E+09]];
    CONST robtarget Target_2100:=[[157.25,123.257,0],[0.996194698,0,-0.087155743,0],[-1,-1,0,0],[9E+09,9E+09,9E+09,9E+09,9E+09,9E+09]];
    CONST robtarget Target_2110:=[[156.914,119.852,0],[0.996194698,0,-0.087155743,0],[-1,-1,0,0],[9E+09,9E+09,9E+09,9E+09,9E+09,9E+09]];
    CONST robtarget Target_2120:=[[156.056,116.456,0],[0.996194698,0,-0.087155743,0],[-1,-1,0,0],[9E+09,9E+09,9E+09,9E+09,9E+09,9E+09]];
    CONST robtarget Target_2130:=[[153.896,113.34,0],[0.996194698,0,-0.087155743,0],[-1,-1,0,0],[9E+09,9E+09,9E+09,9E+09,9E+09,9E+09]];
    CONST robtarget Target_2140:=[[152.012,111.005,0],[0.996194698,0,-0.087155743,0],[-1,-1,0,0],[9E+09,9E+09,9E+09,9E+09,9E+09,9E+09]];
    CONST robtarget Target_2150:=[[149.077,108.683,0],[0.996194698,0,-0.087155743,0],[-1,-1,0,0],[9E+09,9E+09,9E+09,9E+09,9E+09,9E+09]];
    CONST robtarget Target_2160:=[[151.687,108.121,0],[0.996194698,0,-0.087155743,0],[-1,-1,0,0],[9E+09,9E+09,9E+09,9E+09,9E+09,9E+09]];
    CONST robtarget Target_2170:=[[149.755,103.681,0],[0.996194698,0,-0.087155743,0],[-1,-1,0,0],[9E+09,9E+09,9E+09,9E+09,9E+09,9E+09]];
    CONST robtarget Target_2180:=[[149.909,98.687,0],[0.996194698,0,-0.087155743,0],[-1,-1,0,0],[9E+09,9E+09,9E+09,9E+09,9E+09,9E+09]];
    CONST robtarget Target_2190:=[[149.31,95.278,0],[0.996194698,0,-0.087155743,0],[-1,-1,0,0],[9E+09,9E+09,9E+09,9E+09,9E+09,9E+09]];
    CONST robtarget Target_2200:=[[146.618,92.152,0],[0.996194698,0,-0.087155743,0],[-1,-1,0,0],[9E+09,9E+09,9E+09,9E+09,9E+09,9E+09]];
    CONST robtarget Target_2210:=[[144.676,87.436,0],[0.996194698,0,-0.087155743,0],[-1,-1,0,0],[9E+09,9E+09,9E+09,9E+09,9E+09,9E+09]];
    CONST robtarget Target_2220:=[[143.27,83.238,0],[0.996194698,0,-0.087155743,0],[-1,-1,0,0],[9E+09,9E+09,9E+09,9E+09,9E+09,9E+09]];
    CONST robtarget Target_2230:=[[140.832,80.098,0],[0.996194698,0,-0.087155743,0],[-1,-1,0,0],[9E+09,9E+09,9E+09,9E+09,9E+09,9E+09]];
    CONST robtarget Target_2240:=[[136.247,75.385,0],[0.996194698,0,-0.087155743,0],[-1,-1,0,0],[9E+09,9E+09,9E+09,9E+09,9E+09,9E+09]];
    CONST robtarget Target_2250:=[[133.66,71.446,0],[0.996194698,0,-0.087155743,0],[-1,-1,0,0],[9E+09,9E+09,9E+09,9E+09,9E+09,9E+09]];
    CONST robtarget Target_2260:=[[129.262,94.7,0],[0.996194698,0,-0.087155743,0],[-1,-1,0,0],[9E+09,9E+09,9E+09,9E+09,9E+09,9E+09]];
    CONST robtarget Target_2270:=[[132.444,94.931,0],[0.996194698,0,-0.087155743,0],[-1,-1,0,0],[9E+09,9E+09,9E+09,9E+09,9E+09,9E+09]];
    CONST robtarget Target_2280:=[[135.891,95.422,0],[0.996194698,0,-0.087155743,0],[-1,-1,0,0],[9E+09,9E+09,9E+09,9E+09,9E+09,9E+09]];
    CONST robtarget Target_2290:=[[139.091,96.968,0],[0.996194698,0,-0.087155743,0],[-1,-1,0,0],[9E+09,9E+09,9E+09,9E+09,9E+09,9E+09]];
    CONST robtarget Target_2300:=[[142.297,99.038,0],[0.996194698,0,-0.087155743,0],[-1,-1,0,0],[9E+09,9E+09,9E+09,9E+09,9E+09,9E+09]];
    CONST robtarget Target_2310:=[[145.51,101.631,0],[0.996194698,0,-0.087155743,0],[-1,-1,0,0],[9E+09,9E+09,9E+09,9E+09,9E+09,9E+09]];
    CONST robtarget Target_2320:=[[150.721,105.901,0],[0.996194698,0,-0.087155743,0],[-1,-1,0,0],[9E+09,9E+09,9E+09,9E+09,9E+09,9E+09]];
    CONST robtarget Target_2330:=[[130.084,108.158,0],[0.996194698,0,-0.087155743,0],[-1,-1,0,0],[9E+09,9E+09,9E+09,9E+09,9E+09,9E+09]];
    CONST robtarget Target_2340:=[[132.731,108.121,0],[0.996194698,0,-0.087155743,0],[-1,-1,0,0],[9E+09,9E+09,9E+09,9E+09,9E+09,9E+09]];
    CONST robtarget Target_2350:=[[136.464,109.651,0],[0.996194698,0,-0.087155743,0],[-1,-1,0,0],[9E+09,9E+09,9E+09,9E+09,9E+09,9E+09]];
    CONST robtarget Target_2360:=[[140.185,110.915,0],[0.996194698,0,-0.087155743,0],[-1,-1,0,0],[9E+09,9E+09,9E+09,9E+09,9E+09,9E+09]];
    CONST robtarget Target_2370:=[[144.716,113.48,0],[0.996194698,0,-0.087155743,0],[-1,-1,0,0],[9E+09,9E+09,9E+09,9E+09,9E+09,9E+09]];
    CONST robtarget Target_2380:=[[148.216,117.37,0],[0.996194698,0,-0.087155743,0],[-1,-1,0,0],[9E+09,9E+09,9E+09,9E+09,9E+09,9E+09]];
    CONST robtarget Target_2390:=[[149.91,122.861,0],[0.996194698,0,-0.087155743,0],[-1,-1,0,0],[9E+09,9E+09,9E+09,9E+09,9E+09,9E+09]];
    CONST robtarget Target_2400:=[[145.544,127.411,0],[0.996194698,0,-0.087155743,0],[-1,-1,0,0],[9E+09,9E+09,9E+09,9E+09,9E+09,9E+09]];
    CONST robtarget Target_2410:=[[140.058,129.357,0],[0.996194698,0,-0.087155743,0],[-1,-1,0,0],[9E+09,9E+09,9E+09,9E+09,9E+09,9E+09]];
    CONST robtarget Target_2420:=[[136.939,131.527,0],[0.996194698,0,-0.087155743,0],[-1,-1,0,0],[9E+09,9E+09,9E+09,9E+09,9E+09,9E+09]];
    CONST robtarget Target_2430:=[[133.051,135.034,0],[0.996194698,0,-0.087155743,0],[-1,-1,0,0],[9E+09,9E+09,9E+09,9E+09,9E+09,9E+09]];
    CONST robtarget Target_2440:=[[129.69,138.802,0],[0.996194698,0,-0.087155743,0],[-1,-1,0,0],[9E+09,9E+09,9E+09,9E+09,9E+09,9E+09]];
    CONST robtarget Target_2450:=[[128.065,149.408,0],[0.996194698,0,-0.087155743,0],[-1,-1,0,0],[9E+09,9E+09,9E+09,9E+09,9E+09,9E+09]];
    CONST robtarget Target_2460:=[[131.238,149.068,0],[0.996194698,0,-0.087155743,0],[-1,-1,0,0],[9E+09,9E+09,9E+09,9E+09,9E+09,9E+09]];
    CONST robtarget Target_2470:=[[135.705,147.641,0],[0.996194698,0,-0.087155743,0],[-1,-1,0,0],[9E+09,9E+09,9E+09,9E+09,9E+09,9E+09]];
    CONST robtarget Target_2480:=[[144.602,144.535,0],[0.996194698,0,-0.087155743,0],[-1,-1,0,0],[9E+09,9E+09,9E+09,9E+09,9E+09,9E+09]];
    CONST robtarget Target_2490:=[[127.903,93.13,0],[0.996194698,0,-0.087155743,0],[-1,-1,0,0],[9E+09,9E+09,9E+09,9E+09,9E+09,9E+09]];
    CONST robtarget Target_2500:=[[127.464,97.361,0],[0.996194698,0,-0.087155743,0],[-1,-1,0,0],[9E+09,9E+09,9E+09,9E+09,9E+09,9E+09]];
    CONST robtarget Target_2510:=[[127.308,102.383,0],[0.996194698,0,-0.087155743,0],[-1,-1,0,0],[9E+09,9E+09,9E+09,9E+09,9E+09,9E+09]];
    CONST robtarget Target_2520:=[[130.084,108.158,0],[0.996194698,0,-0.087155743,0],[-1,-1,0,0],[9E+09,9E+09,9E+09,9E+09,9E+09,9E+09]];
    CONST robtarget Target_2530:=[[127.769,111.36,0],[0.996194698,0,-0.087155743,0],[-1,-1,0,0],[9E+09,9E+09,9E+09,9E+09,9E+09,9E+09]];
    CONST robtarget Target_2540:=[[123.614,115.653,0],[0.996194698,0,-0.087155743,0],[-1,-1,0,0],[9E+09,9E+09,9E+09,9E+09,9E+09,9E+09]];
    CONST robtarget Target_2550:=[[118.294,115.736,0],[0.996194698,0,-0.087155743,0],[-1,-1,0,0],[9E+09,9E+09,9E+09,9E+09,9E+09,9E+09]];
    CONST robtarget Target_2560:=[[113.97,113.153,0],[0.996194698,0,-0.087155743,0],[-1,-1,0,0],[9E+09,9E+09,9E+09,9E+09,9E+09,9E+09]];
    CONST robtarget Target_2570:=[[111.224,109.745,0],[0.996194698,0,-0.087155743,0],[-1,-1,0,0],[9E+09,9E+09,9E+09,9E+09,9E+09,9E+09]];
    CONST robtarget Target_2580:=[[109.254,105.261,0],[0.996194698,0,-0.087155743,0],[-1,-1,0,0],[9E+09,9E+09,9E+09,9E+09,9E+09,9E+09]];
    CONST robtarget Target_2590:=[[127.866,115.85,0],[0.996194698,0,-0.087155743,0],[-1,-1,0,0],[9E+09,9E+09,9E+09,9E+09,9E+09,9E+09]];
    CONST robtarget Target_2600:=[[128.995,119.003,0],[0.996194698,0,-0.087155743,0],[-1,-1,0,0],[9E+09,9E+09,9E+09,9E+09,9E+09,9E+09]];
    CONST robtarget Target_2610:=[[129.611,122.954,0],[0.996194698,0,-0.087155743,0],[-1,-1,0,0],[9E+09,9E+09,9E+09,9E+09,9E+09,9E+09]];
    CONST robtarget Target_2620:=[[130.526,128.484,0],[0.996194698,0,-0.087155743,0],[-1,-1,0,0],[9E+09,9E+09,9E+09,9E+09,9E+09,9E+09]];
    CONST robtarget Target_2630:=[[130.359,132.977,0],[0.996194698,0,-0.087155743,0],[-1,-1,0,0],[9E+09,9E+09,9E+09,9E+09,9E+09,9E+09]];
    CONST robtarget Target_2640:=[[127.524,136.734,0],[0.996194698,0,-0.087155743,0],[-1,-1,0,0],[9E+09,9E+09,9E+09,9E+09,9E+09,9E+09]];
    CONST robtarget Target_2650:=[[129.69,138.802,0],[0.996194698,0,-0.087155743,0],[-1,-1,0,0],[9E+09,9E+09,9E+09,9E+09,9E+09,9E+09]];
    CONST robtarget Target_2660:=[[129.005,143.837,0],[0.996194698,0,-0.087155743,0],[-1,-1,0,0],[9E+09,9E+09,9E+09,9E+09,9E+09,9E+09]];
    CONST robtarget Target_2670:=[[126.497,150.504,0],[0.996194698,0,-0.087155743,0],[-1,-1,0,0],[9E+09,9E+09,9E+09,9E+09,9E+09,9E+09]];
    CONST robtarget Target_2680:=[[121.512,153.537,0],[0.996194698,0,-0.087155743,0],[-1,-1,0,0],[9E+09,9E+09,9E+09,9E+09,9E+09,9E+09]];
    CONST robtarget Target_2690:=[[116.22,155.26,0],[0.996194698,0,-0.087155743,0],[-1,-1,0,0],[9E+09,9E+09,9E+09,9E+09,9E+09,9E+09]];
    CONST robtarget Target_2700:=[[113.453,150.821,0],[0.996194698,0,-0.087155743,0],[-1,-1,0,0],[9E+09,9E+09,9E+09,9E+09,9E+09,9E+09]];
    CONST robtarget Target_2710:=[[112.571,147.128,0],[0.996194698,0,-0.087155743,0],[-1,-1,0,0],[9E+09,9E+09,9E+09,9E+09,9E+09,9E+09]];
    CONST robtarget Target_2720:=[[112.456,141.825,0],[0.996194698,0,-0.087155743,0],[-1,-1,0,0],[9E+09,9E+09,9E+09,9E+09,9E+09,9E+09]];
    CONST robtarget Target_2730:=[[113.223,140.216,0],[0.996194698,0,-0.087155743,0],[-1,-1,0,0],[9E+09,9E+09,9E+09,9E+09,9E+09,9E+09]];
    CONST robtarget Target_2740:=[[114.181,135.157,0],[0.996194698,0,-0.087155743,0],[-1,-1,0,0],[9E+09,9E+09,9E+09,9E+09,9E+09,9E+09]];
    CONST robtarget Target_2750:=[[115.708,131.68,0],[0.996194698,0,-0.087155743,0],[-1,-1,0,0],[9E+09,9E+09,9E+09,9E+09,9E+09,9E+09]];
    CONST robtarget Target_2760:=[[114.542,127.195,0],[0.996194698,0,-0.087155743,0],[-1,-1,0,0],[9E+09,9E+09,9E+09,9E+09,9E+09,9E+09]];
    CONST robtarget Target_2770:=[[114.393,120.305,0],[0.996194698,0,-0.087155743,0],[-1,-1,0,0],[9E+09,9E+09,9E+09,9E+09,9E+09,9E+09]];
    CONST robtarget Target_2780:=[[114.306,116.329,0],[0.996194698,0,-0.087155743,0],[-1,-1,0,0],[9E+09,9E+09,9E+09,9E+09,9E+09,9E+09]];
    CONST robtarget Target_2790:=[[115.292,113.93,0],[0.996194698,0,-0.087155743,0],[-1,-1,0,0],[9E+09,9E+09,9E+09,9E+09,9E+09,9E+09]];
    CONST robtarget Target_2800:=[[136.842,109.763,0],[0.996194698,0,-0.087155743,0],[-1,-1,0,0],[9E+09,9E+09,9E+09,9E+09,9E+09,9E+09]];
    CONST robtarget Target_2810:=[[135.993,112.295,0],[0.996194698,0,-0.087155743,0],[-1,-1,0,0],[9E+09,9E+09,9E+09,9E+09,9E+09,9E+09]];
    CONST robtarget Target_2820:=[[137.651,115.696,0],[0.996194698,0,-0.087155743,0],[-1,-1,0,0],[9E+09,9E+09,9E+09,9E+09,9E+09,9E+09]];
    CONST robtarget Target_2830:=[[141.604,115.634,0],[0.996194698,0,-0.087155743,0],[-1,-1,0,0],[9E+09,9E+09,9E+09,9E+09,9E+09,9E+09]];
    CONST robtarget Target_2840:=[[137.416,117.018,0],[0.996194698,0,-0.087155743,0],[-1,-1,0,0],[9E+09,9E+09,9E+09,9E+09,9E+09,9E+09]];
    CONST robtarget Target_2850:=[[138.798,119.894,0],[0.996194698,0,-0.087155743,0],[-1,-1,0,0],[9E+09,9E+09,9E+09,9E+09,9E+09,9E+09]];
    CONST robtarget Target_2860:=[[141.501,123.009,0],[0.996194698,0,-0.087155743,0],[-1,-1,0,0],[9E+09,9E+09,9E+09,9E+09,9E+09,9E+09]];
    CONST robtarget Target_2870:=[[146.007,124.508,0],[0.996194698,0,-0.087155743,0],[-1,-1,0,0],[9E+09,9E+09,9E+09,9E+09,9E+09,9E+09]];
    CONST robtarget Target_2880:=[[119.995,120.475,0],[0.996194698,0,-0.087155743,0],[-1,-1,0,0],[9E+09,9E+09,9E+09,9E+09,9E+09,9E+09]];
    CONST robtarget Target_2890:=[[116.03,109.677,0],[0.996194698,0,-0.087155743,0],[-1,-1,0,0],[9E+09,9E+09,9E+09,9E+09,9E+09,9E+09]];
    CONST robtarget Target_2900:=[[115.017,99.885,0],[0.996194698,0,-0.087155743,0],[-1,-1,0,0],[9E+09,9E+09,9E+09,9E+09,9E+09,9E+09]];
    CONST robtarget Target_2910:=[[115.32,89.282,0],[0.996194698,0,-0.087155743,0],[-1,-1,0,0],[9E+09,9E+09,9E+09,9E+09,9E+09,9E+09]];
    CONST robtarget Target_2920:=[[115.199,83.719,0],[0.996194698,0,-0.087155743,0],[-1,-1,0,0],[9E+09,9E+09,9E+09,9E+09,9E+09,9E+09]];
    CONST robtarget Target_2930:=[[122.886,118.839,0],[0.996194698,0,-0.087155743,0],[-1,-1,0,0],[9E+09,9E+09,9E+09,9E+09,9E+09,9E+09]];
    CONST robtarget Target_2940:=[[124.014,109.564,0],[0.996194698,0,-0.087155743,0],[-1,-1,0,0],[9E+09,9E+09,9E+09,9E+09,9E+09,9E+09]];
    CONST robtarget Target_2950:=[[125.129,99.766,0],[0.996194698,0,-0.087155743,0],[-1,-1,0,0],[9E+09,9E+09,9E+09,9E+09,9E+09,9E+09]];
    CONST robtarget Target_2960:=[[125.43,89.19,0],[0.996194698,0,-0.087155743,0],[-1,-1,0,0],[9E+09,9E+09,9E+09,9E+09,9E+09,9E+09]];
    CONST robtarget Target_2970:=[[118.902,155.987,0],[0.996194698,0,-0.087155743,0],[-1,-1,0,0],[9E+09,9E+09,9E+09,9E+09,9E+09,9E+09]];
    CONST robtarget Target_2980:=[[118.247,162.628,0],[0.996194698,0,-0.087155743,0],[-1,-1,0,0],[9E+09,9E+09,9E+09,9E+09,9E+09,9E+09]];
    CONST robtarget Target_2990:=[[117.348,170.339,0],[0.996194698,0,-0.087155743,0],[-1,-1,0,0],[9E+09,9E+09,9E+09,9E+09,9E+09,9E+09]];
    CONST robtarget Target_3000:=[[118.853,178.245,0],[0.996194698,0,-0.087155743,0],[-1,-1,0,0],[9E+09,9E+09,9E+09,9E+09,9E+09,9E+09]];
    CONST robtarget Target_3010:=[[120.062,184.83,0],[0.996194698,0,-0.087155743,0],[-1,-1,0,0],[9E+09,9E+09,9E+09,9E+09,9E+09,9E+09]];
    CONST robtarget Target_3020:=[[116.859,154.708,0],[0.996194698,0,-0.087155743,0],[-1,-1,0,0],[9E+09,9E+09,9E+09,9E+09,9E+09,9E+09]];
    CONST robtarget Target_3030:=[[111.808,161.212,0],[0.996194698,0,-0.087155743,0],[-1,-1,0,0],[9E+09,9E+09,9E+09,9E+09,9E+09,9E+09]];
    CONST robtarget Target_3040:=[[106.651,170.386,0],[0.996194698,0,-0.087155743,0],[-1,-1,0,0],[9E+09,9E+09,9E+09,9E+09,9E+09,9E+09]];
    CONST robtarget Target_3050:=[[103.373,180.058,0],[0.996194698,0,-0.087155743,0],[-1,-1,0,0],[9E+09,9E+09,9E+09,9E+09,9E+09,9E+09]];
    CONST robtarget Target_3060:=[[110.759,112.936,0],[0.996194698,0,-0.087155743,0],[-1,-1,0,0],[9E+09,9E+09,9E+09,9E+09,9E+09,9E+09]];
    CONST robtarget Target_3070:=[[107.764,110.591,0],[0.996194698,0,-0.087155743,0],[-1,-1,0,0],[9E+09,9E+09,9E+09,9E+09,9E+09,9E+09]];
    CONST robtarget Target_3080:=[[99.617,106.185,0],[0.996194698,0,-0.087155743,0],[-1,-1,0,0],[9E+09,9E+09,9E+09,9E+09,9E+09,9E+09]];
    CONST robtarget Target_3090:=[[91.743,103.357,0],[0.996194698,0,-0.087155743,0],[-1,-1,0,0],[9E+09,9E+09,9E+09,9E+09,9E+09,9E+09]];
    CONST robtarget Target_3100:=[[85.474,101.033,0],[0.996194698,0,-0.087155743,0],[-1,-1,0,0],[9E+09,9E+09,9E+09,9E+09,9E+09,9E+09]];
    CONST robtarget Target_3110:=[[77.58,99.79,0],[0.996194698,0,-0.087155743,0],[-1,-1,0,0],[9E+09,9E+09,9E+09,9E+09,9E+09,9E+09]];
    CONST robtarget Target_3120:=[[74.439,105.448,0],[0.996194698,0,-0.087155743,0],[-1,-1,0,0],[9E+09,9E+09,9E+09,9E+09,9E+09,9E+09]];
    CONST robtarget Target_3130:=[[78.969,113.679,0],[0.996194698,0,-0.087155743,0],[-1,-1,0,0],[9E+09,9E+09,9E+09,9E+09,9E+09,9E+09]];
    CONST robtarget Target_3140:=[[85.581,118.386,0],[0.996194698,0,-0.087155743,0],[-1,-1,0,0],[9E+09,9E+09,9E+09,9E+09,9E+09,9E+09]];
    CONST robtarget Target_3150:=[[92.682,121.736,0],[0.996194698,0,-0.087155743,0],[-1,-1,0,0],[9E+09,9E+09,9E+09,9E+09,9E+09,9E+09]];
    CONST robtarget Target_3160:=[[99.175,122.955,0],[0.996194698,0,-0.087155743,0],[-1,-1,0,0],[9E+09,9E+09,9E+09,9E+09,9E+09,9E+09]];
    CONST robtarget Target_3170:=[[107.249,123.877,0],[0.996194698,0,-0.087155743,0],[-1,-1,0,0],[9E+09,9E+09,9E+09,9E+09,9E+09,9E+09]];
    CONST robtarget Target_3180:=[[112.07,124.057,0],[0.996194698,0,-0.087155743,0],[-1,-1,0,0],[9E+09,9E+09,9E+09,9E+09,9E+09,9E+09]];
    CONST robtarget Target_3190:=[[109.806,142.945,0],[0.996194698,0,-0.087155743,0],[-1,-1,0,0],[9E+09,9E+09,9E+09,9E+09,9E+09,9E+09]];
    CONST robtarget Target_3200:=[[103.854,140.42,0],[0.996194698,0,-0.087155743,0],[-1,-1,0,0],[9E+09,9E+09,9E+09,9E+09,9E+09,9E+09]];
    CONST robtarget Target_3210:=[[93.844,137.972,0],[0.996194698,0,-0.087155743,0],[-1,-1,0,0],[9E+09,9E+09,9E+09,9E+09,9E+09,9E+09]];
    CONST robtarget Target_3220:=[[86.798,137.053,0],[0.996194698,0,-0.087155743,0],[-1,-1,0,0],[9E+09,9E+09,9E+09,9E+09,9E+09,9E+09]];
    CONST robtarget Target_3230:=[[78.954,138.018,0],[0.996194698,0,-0.087155743,0],[-1,-1,0,0],[9E+09,9E+09,9E+09,9E+09,9E+09,9E+09]];
    CONST robtarget Target_3240:=[[75.212,141.042,0],[0.996194698,0,-0.087155743,0],[-1,-1,0,0],[9E+09,9E+09,9E+09,9E+09,9E+09,9E+09]];
    CONST robtarget Target_3250:=[[76.694,146.631,0],[0.996194698,0,-0.087155743,0],[-1,-1,0,0],[9E+09,9E+09,9E+09,9E+09,9E+09,9E+09]];
    CONST robtarget Target_3260:=[[81.081,148.401,0],[0.996194698,0,-0.087155743,0],[-1,-1,0,0],[9E+09,9E+09,9E+09,9E+09,9E+09,9E+09]];
    CONST robtarget Target_3270:=[[86.541,150.142,0],[0.996194698,0,-0.087155743,0],[-1,-1,0,0],[9E+09,9E+09,9E+09,9E+09,9E+09,9E+09]];
    CONST robtarget Target_3280:=[[92.797,151.858,0],[0.996194698,0,-0.087155743,0],[-1,-1,0,0],[9E+09,9E+09,9E+09,9E+09,9E+09,9E+09]];
    CONST robtarget Target_3290:=[[98.992,151.706,0],[0.996194698,0,-0.087155743,0],[-1,-1,0,0],[9E+09,9E+09,9E+09,9E+09,9E+09,9E+09]];
    CONST robtarget Target_3300:=[[105.711,151.807,0],[0.996194698,0,-0.087155743,0],[-1,-1,0,0],[9E+09,9E+09,9E+09,9E+09,9E+09,9E+09]];
    CONST robtarget Target_3310:=[[111.043,150.615,0],[0.996194698,0,-0.087155743,0],[-1,-1,0,0],[9E+09,9E+09,9E+09,9E+09,9E+09,9E+09]];
    CONST robtarget Target_3320:=[[123.097,140.795,0],[0.996194698,0,-0.087155743,0],[-1,-1,0,0],[9E+09,9E+09,9E+09,9E+09,9E+09,9E+09]];
    CONST robtarget Target_3330:=[[121.699,137.65,0],[0.996194698,0,-0.087155743,0],[-1,-1,0,0],[9E+09,9E+09,9E+09,9E+09,9E+09,9E+09]];
    CONST robtarget Target_3340:=[[120.803,133.168,0],[0.996194698,0,-0.087155743,0],[-1,-1,0,0],[9E+09,9E+09,9E+09,9E+09,9E+09,9E+09]];
    CONST robtarget Target_3350:=[[118.362,131.098,0],[0.996194698,0,-0.087155743,0],[-1,-1,0,0],[9E+09,9E+09,9E+09,9E+09,9E+09,9E+09]];
    CONST robtarget Target_3360:=[[115.09,133.07,0],[0.996194698,0,-0.087155743,0],[-1,-1,0,0],[9E+09,9E+09,9E+09,9E+09,9E+09,9E+09]];
    CONST robtarget Target_3370:=[[113.389,139.34,0],[0.996194698,0,-0.087155743,0],[-1,-1,0,0],[9E+09,9E+09,9E+09,9E+09,9E+09,9E+09]];
    CONST robtarget Target_3380:=[[115.184,144.416,0],[0.996194698,0,-0.087155743,0],[-1,-1,0,0],[9E+09,9E+09,9E+09,9E+09,9E+09,9E+09]];
    CONST robtarget Target_3390:=[[118.944,145.654,0],[0.996194698,0,-0.087155743,0],[-1,-1,0,0],[9E+09,9E+09,9E+09,9E+09,9E+09,9E+09]];
    CONST robtarget Target_3400:=[[122.34,142.665,0],[0.996194698,0,-0.087155743,0],[-1,-1,0,0],[9E+09,9E+09,9E+09,9E+09,9E+09,9E+09]];
    CONST robtarget Target_3410:=[[75.857,102.902,0],[0.996194698,0,-0.087155743,0],[-1,-1,0,0],[9E+09,9E+09,9E+09,9E+09,9E+09,9E+09]];
    CONST robtarget Target_3420:=[[69.487,103.368,0],[0.996194698,0,-0.087155743,0],[-1,-1,0,0],[9E+09,9E+09,9E+09,9E+09,9E+09,9E+09]];
    CONST robtarget Target_3430:=[[64.303,103.702,0],[0.996194698,0,-0.087155743,0],[-1,-1,0,0],[9E+09,9E+09,9E+09,9E+09,9E+09,9E+09]];
    CONST robtarget Target_3440:=[[58.218,101.09,0],[0.996194698,0,-0.087155743,0],[-1,-1,0,0],[9E+09,9E+09,9E+09,9E+09,9E+09,9E+09]];
    CONST robtarget Target_3490:=[[73.312,141.351,0],[0.996194698,0,-0.087155743,0],[-1,-1,0,0],[9E+09,9E+09,9E+09,9E+09,9E+09,9E+09]];
    CONST robtarget Target_3500:=[[68.433,142.799,0],[0.996194698,0,-0.087155743,0],[-1,-1,0,0],[9E+09,9E+09,9E+09,9E+09,9E+09,9E+09]];
    CONST robtarget Target_3510:=[[59.724,145.141,0],[0.996194698,0,-0.087155743,0],[-1,-1,0,0],[9E+09,9E+09,9E+09,9E+09,9E+09,9E+09]];
    CONST robtarget Target_3520:=[[53.144,145.829,0],[0.996194698,0,-0.087155743,0],[-1,-1,0,0],[9E+09,9E+09,9E+09,9E+09,9E+09,9E+09]];
    CONST robtarget Target_3530:=[[77.677,146.892,0],[0.996194698,0,-0.087155743,0],[-1,-1,0,0],[9E+09,9E+09,9E+09,9E+09,9E+09,9E+09]];
    CONST robtarget Target_3540:=[[70.761,149.448,0],[0.996194698,0,-0.087155743,0],[-1,-1,0,0],[9E+09,9E+09,9E+09,9E+09,9E+09,9E+09]];
    CONST robtarget Target_3550:=[[65.631,152.254,0],[0.996194698,0,-0.087155743,0],[-1,-1,0,0],[9E+09,9E+09,9E+09,9E+09,9E+09,9E+09]];
    CONST robtarget Target_3560:=[[59.637,153.745,0],[0.996194698,0,-0.087155743,0],[-1,-1,0,0],[9E+09,9E+09,9E+09,9E+09,9E+09,9E+09]];
    CONST robtarget Target_3570:=[[60.768,142.971,0],[0.996194698,0,-0.087155743,0],[-1,-1,0,0],[9E+09,9E+09,9E+09,9E+09,9E+09,9E+09]];
    CONST robtarget Target_3580:=[[60.966,139.202,0],[0.996194698,0,-0.087155743,0],[-1,-1,0,0],[9E+09,9E+09,9E+09,9E+09,9E+09,9E+09]];
    CONST robtarget Target_3590:=[[64.973,134.554,0],[0.996194698,0,-0.087155743,0],[-1,-1,0,0],[9E+09,9E+09,9E+09,9E+09,9E+09,9E+09]];
    CONST robtarget Target_3600:=[[62.155,102.778,0],[0.996194698,0,-0.087155743,0],[-1,-1,0,0],[9E+09,9E+09,9E+09,9E+09,9E+09,9E+09]];
    CONST robtarget Target_3610:=[[61.426,97.293,0],[0.996194698,0,-0.087155743,0],[-1,-1,0,0],[9E+09,9E+09,9E+09,9E+09,9E+09,9E+09]];
    CONST robtarget Target_3620:=[[66.227,91.608,0],[0.996194698,0,-0.087155743,0],[-1,-1,0,0],[9E+09,9E+09,9E+09,9E+09,9E+09,9E+09]];
    CONST robtarget Target_3630:=[[71.685,91.555,0],[0.996194698,0,-0.087155743,0],[-1,-1,0,0],[9E+09,9E+09,9E+09,9E+09,9E+09,9E+09]];
    CONST robtarget Target_3640:=[[76.052,92.049,0],[0.996194698,0,-0.087155743,0],[-1,-1,0,0],[9E+09,9E+09,9E+09,9E+09,9E+09,9E+09]];
    CONST robtarget Target_3650:=[[101.019,108.826,0],[0.996194698,0,-0.087155743,0],[-1,-1,0,0],[9E+09,9E+09,9E+09,9E+09,9E+09,9E+09]];
    CONST robtarget Target_3660:=[[98.657,111.52,0],[0.996194698,0,-0.087155743,0],[-1,-1,0,0],[9E+09,9E+09,9E+09,9E+09,9E+09,9E+09]];
    CONST robtarget Target_3670:=[[101.403,114.14,0],[0.996194698,0,-0.087155743,0],[-1,-1,0,0],[9E+09,9E+09,9E+09,9E+09,9E+09,9E+09]];
    CONST robtarget Target_3680:=[[107.087,116.443,0],[0.996194698,0,-0.087155743,0],[-1,-1,0,0],[9E+09,9E+09,9E+09,9E+09,9E+09,9E+09]];
    CONST robtarget Target_3690:=[[111.914,116.898,0],[0.996194698,0,-0.087155743,0],[-1,-1,0,0],[9E+09,9E+09,9E+09,9E+09,9E+09,9E+09]];
    CONST robtarget Target_3700:=[[100.714,139.652,0],[0.996194698,0,-0.087155743,0],[-1,-1,0,0],[9E+09,9E+09,9E+09,9E+09,9E+09,9E+09]];
    CONST robtarget Target_3710:=[[97.45,142.689,0],[0.996194698,0,-0.087155743,0],[-1,-1,0,0],[9E+09,9E+09,9E+09,9E+09,9E+09,9E+09]];
    CONST robtarget Target_3720:=[[98.596,145.858,0],[0.996194698,0,-0.087155743,0],[-1,-1,0,0],[9E+09,9E+09,9E+09,9E+09,9E+09,9E+09]];
    CONST robtarget Target_3730:=[[103.975,146,0],[0.996194698,0,-0.087155743,0],[-1,-1,0,0],[9E+09,9E+09,9E+09,9E+09,9E+09,9E+09]];
    CONST robtarget Target_3740:=[[107.477,146.716,0],[0.996194698,0,-0.087155743,0],[-1,-1,0,0],[9E+09,9E+09,9E+09,9E+09,9E+09,9E+09]];
    CONST robtarget Target_3750:=[[110.666,145.58,0],[0.996194698,0,-0.087155743,0],[-1,-1,0,0],[9E+09,9E+09,9E+09,9E+09,9E+09,9E+09]];
    CONST robtarget Target_3760:=[[76.052,108.379,0],[0.996194698,0,-0.087155743,0],[-1,-1,0,0],[9E+09,9E+09,9E+09,9E+09,9E+09,9E+09]];
    CONST robtarget Target_3770:=[[72.532,109.621,0],[0.996194698,0,-0.087155743,0],[-1,-1,0,0],[9E+09,9E+09,9E+09,9E+09,9E+09,9E+09]];
    CONST robtarget Target_3780:=[[66.724,110.495,0],[0.996194698,0,-0.087155743,0],[-1,-1,0,0],[9E+09,9E+09,9E+09,9E+09,9E+09,9E+09]];
    CONST robtarget Target_3790:=[[61.522,110.253,0],[0.996194698,0,-0.087155743,0],[-1,-1,0,0],[9E+09,9E+09,9E+09,9E+09,9E+09,9E+09]];
    CONST robtarget Target_3800:=[[58.186,108.93,0],[0.996194698,0,-0.087155743,0],[-1,-1,0,0],[9E+09,9E+09,9E+09,9E+09,9E+09,9E+09]];
    CONST robtarget Target_3810:=[[103.046,108.662,0],[0.996194698,0,-0.087155743,0],[-1,-1,0,0],[9E+09,9E+09,9E+09,9E+09,9E+09,9E+09]];
    CONST robtarget Target_3820:=[[101.554,110.229,0],[0.996194698,0,-0.087155743,0],[-1,-1,0,0],[9E+09,9E+09,9E+09,9E+09,9E+09,9E+09]];
    CONST robtarget Target_3830:=[[101.86,112.348,0],[0.996194698,0,-0.087155743,0],[-1,-1,0,0],[9E+09,9E+09,9E+09,9E+09,9E+09,9E+09]];
    CONST robtarget Target_3840:=[[103.548,113.313,0],[0.996194698,0,-0.087155743,0],[-1,-1,0,0],[9E+09,9E+09,9E+09,9E+09,9E+09,9E+09]];
    CONST robtarget Target_3850:=[[105.844,114.056,0],[0.996194698,0,-0.087155743,0],[-1,-1,0,0],[9E+09,9E+09,9E+09,9E+09,9E+09,9E+09]];
    CONST robtarget Target_3860:=[[108.271,115.146,0],[0.996194698,0,-0.087155743,0],[-1,-1,0,0],[9E+09,9E+09,9E+09,9E+09,9E+09,9E+09]];
    CONST robtarget Target_3870:=[[93.62857813,95.355821655,-30.293406852],[0.972243479,-0.004055028,-0.215165696,0.091814472],[-2,0,-1,0],[9E+09,9E+09,9E+09,9E+09,9E+09,9E+09]];
    CONST robtarget Target_3880:=[[32.466,201.494,0],[0.996194698,0,-0.087155743,0],[0,0,0,0],[9E+09,9E+09,9E+09,9E+09,9E+09,9E+09]];
    CONST robtarget Target_3900:=[[35.036,210.37,0],[0.996194698,0,-0.087155743,0],[0,0,0,0],[9E+09,9E+09,9E+09,9E+09,9E+09,9E+09]];
    CONST robtarget Target_3890:=[[25.652,210.197,0],[0.996194698,0,-0.087155743,0],[0,0,0,0],[9E+09,9E+09,9E+09,9E+09,9E+09,9E+09]];
    CONST robtarget Target_3910:=[[14.227,255.391,0],[0.996194698,0,-0.087155743,0],[0,0,0,0],[9E+09,9E+09,9E+09,9E+09,9E+09,9E+09]];
    CONST robtarget Target_3920:=[[15.524,240.259,0],[0.996194698,0,-0.087155743,0],[0,0,0,0],[9E+09,9E+09,9E+09,9E+09,9E+09,9E+09]];
    CONST robtarget Target_3930:=[[38.266520081,282.430398087,-37.025596615],[0.852316896,-0.054022286,-0.181994308,0.487355694],[-1,-1,0,0],[9E+09,9E+09,9E+09,9E+09,9E+09,9E+09]];
    CONST robtarget Target_3950:=[[75.271,222.468,0],[0.996194698,0,-0.087155743,0],[0,0,0,0],[9E+09,9E+09,9E+09,9E+09,9E+09,9E+09]];
    CONST robtarget Target_3940:=[[55.056,222.566,0],[0.996194698,0,-0.087155743,0],[0,0,0,0],[9E+09,9E+09,9E+09,9E+09,9E+09,9E+09]];
    CONST robtarget Target_Mantenimiento:=[[1508.858453685,363.671185126,-276.672497386],[0.122399477,-0.499432044,-0.071524475,-0.854675524],[0,-1,0,1],[9E+09,9E+09,9E+09,9E+09,9E+09,9E+09]];
    
    PROC main()
        RESET DO_01;
        RESET DO_02;
        WHILE TRUE DO    
            IF DI_02 = 1 THEN
                Path_770;
                RESET DO_01;
            ENDIF
       IF DI_01 = 1 THEN
             SET DO_01;
             SET Conveyor_FWD;
             WaitTime 4;
             RESET Conveyor_FWD;
             Path_10;
             Path_740; !aleja un poco
             Path_20;
             Path_30;
             Path_210;
             Path_720;
             Path_40;
             Path_730;
             Path_50;
             Path_60;
             Path_210; !aleja un poco
             Path_710;
             Path_210; !aleja un poco
             Path_700;
             Path_80; 
             Path_90;
             Path_210;
             Path_100;
             Path_110;
             Path_210; !aleja un poco
             Path_120;
             Path_130;
             Path_140;
             Path_150;
             Path_210; !aleja un poco
             Path_750;
             Path_160;
             Path_760;
             Path_210; !aleja un poco
             Path_190;
             Path_200;
             Path_210; !aleja un poco
             Path_250;
             Path_210; !aleja un poco
             Path_220;
             Path_230;
             Path_240;
             Path_210; !aleja un poco
             Path_260;
             Path_270;
             Path_280;
             Path_290;
             Path_210;
             Path_300;
             Path_210; !aleja un poco
             Path_310;
             Path_210; !aleja un poco
             Path_320;
             Path_330;
             Path_210; !aleja un poco
             Path_340;
             Path_350;
             Path_210; !aleja un poco
             Path_370;
             Path_690; !aleja un poco 
             Path_380;   
             Path_390;
             Path_400;
             Path_410;
             Path_690; !aleja un poco 
             Path_420;
             Path_430;
             Path_690; !aleja un poco
             Path_440;
             Path_690; !aleja un poco
             Path_450;
             Path_690; !aleja un poco
             Path_460;
             Path_690; !aleja un poco
             Path_470;       
             Path_690; !aleja un poco
             Path_480;       
             Path_690; !aleja un poco
             Path_490;       
             Path_690; !aleja un poco
             Path_500;       
             Path_690; !aleja un poco
             Path_510;       
             Path_690; !aleja un poco
             Path_520;       
             Path_690; !aleja un poco
             Path_530;       
             Path_690; !aleja un poco
             Path_540;       
             Path_690; !aleja un poco
             Path_550;       
             Path_690; !aleja un poco
             Path_560;       
             Path_690; !aleja un poco
             Path_570;       
             Path_690; !aleja un poco
             Path_580;       
             Path_690; !aleja un poco
             Path_590;       
             Path_690; !aleja un poco
             Path_600;       
             Path_690; !aleja un poco
             Path_610;       
             Path_690; !aleja un poco
             Path_620;       
             Path_690; !aleja un poco
             Path_630;       
             Path_690; !aleja un poco
             Path_640;       
             Path_690; !aleja un poco
             Path_660;       
             Path_690; !aleja un poco
             Path_650;       
             Path_690; !aleja un poco
             Path_660;       
             Path_690; !aleja un poco
             Path_670;       
             Path_690; !aleja un poco
             Path_10;
            
            !SET Conveyor_FWD;
            WaitTime 5;
           ! RESET Conveyor_FWD;
        ENDIF
        ENDWHILE
        
    ENDPROC
    PROC Path_10()
        MoveJ Target_home,v100,z10,Marcador\WObj:=wobj0;
    ENDPROC
    PROC Path_20()
        MoveJ Target_10,v100,z10,Marcador\WObj:=Workobject_3;
        MoveL Target_20,v100,z10,Marcador\WObj:=Workobject_3;
        
    ENDPROC  
    PROC Path_30()
        MoveJ Target_30,v100,z10,Marcador\WObj:=Workobject_3;
        MoveC Target_40,Target_50,v100,z10,Marcador\WObj:=Workobject_3;
        MoveC Target_40,Target_30,v100,z10,Marcador\WObj:=Workobject_3;
        MoveL Target_20,v100,z10,Marcador\WObj:=Workobject_3;
        MoveL Target_10,v100,z10,Marcador\WObj:=Workobject_3;
        MoveL Target_60,v100,z10,Marcador\WObj:=Workobject_3;
        MoveL Target_70,v100,z10,Marcador\WObj:=Workobject_3;  
    ENDPROC
    PROC Path_40()
        MoveL Target_80,v100,z10,Marcador\WObj:=Workobject_3;     
        MoveC Target_90,Target_100,v100,z10,Marcador\WObj:=Workobject_3;

    ENDPROC
    PROC Path_50()
        MoveL Target_120,v100,z10,Marcador\WObj:=Workobject_3;
        MoveC Target_130,Target_140,v100,z10,Marcador\WObj:=Workobject_3;
        
    ENDPROC
    PROC Path_60()
        MoveJ Target_140,v100,z10,Marcador\WObj:=Workobject_3;
        MoveC Target_150,Target_120,v100,z10,Marcador\WObj:=Workobject_3;
        MoveC Target_130,Target_140,v100,z10,Marcador\WObj:=Workobject_3;
    ENDPROC
    PROC Path_70()
    ENDPROC
    PROC Path_80()
        MoveL Target_180,v100,z10,Marcador\WObj:=Workobject_3;
        MoveC Target_190,Target_200,v100,z10,Marcador\WObj:=Workobject_3;
        
    ENDPROC
    PROC Path_90()
        MoveL Target_200,v100,z10,Marcador\WObj:=Workobject_3;
        MoveL Target_210,v100,z10,Marcador\WObj:=Workobject_3;
    ENDPROC
    PROC Path_100()
        MoveL Target_220,v100,z10,Marcador\WObj:=Workobject_3;
        MoveC Target_230,Target_240,v100,z10,Marcador\WObj:=Workobject_3;
    ENDPROC
    PROC Path_110()
        MoveL Target_240,v100,z10,Marcador\WObj:=Workobject_3;
        MoveC Target_250,Target_220,v100,z10,Marcador\WObj:=Workobject_3;
        MoveC Target_230,Target_240,v100,z10,Marcador\WObj:=Workobject_3;
    ENDPROC
    PROC Path_120()
        MoveL Target_260,v100,z10,Marcador\WObj:=Workobject_3;
        MoveL Target_270,v100,z10,Marcador\WObj:=Workobject_3;
    ENDPROC
    PROC Path_130()
        MoveL Target_270,v100,z10,Marcador\WObj:=Workobject_3;
        MoveC Target_280,Target_290,v100,z10,Marcador\WObj:=Workobject_3; 
    ENDPROC
    PROC Path_140()
        MoveL Target_290,v100,z10,Marcador\WObj:=Workobject_3;
        MoveL Target_300,v100,z10,Marcador\WObj:=Workobject_3;
    ENDPROC
    PROC Path_150()
        MoveL Target_300,v100,z10,Marcador\WObj:=Workobject_3;
        MoveC Target_310,Target_320,v100,z10,Marcador\WObj:=Workobject_3;

    ENDPROC
    PROC Path_160()
        MoveL Target_360,v100,z10,Marcador\WObj:=Workobject_3;
        MoveC Target_370,Target_380,v100,z10,Marcador\WObj:=Workobject_3;
    ENDPROC
    PROC Path_190()
        MoveL Target_410,v100,z10,Marcador\WObj:=Workobject_3;
        MoveC Target_420,Target_430,v100,z10,Marcador\WObj:=Workobject_3;
    ENDPROC
    PROC Path_200()
        MoveL Target_430,v100,z10,Marcador\WObj:=Workobject_3;
        MoveC Target_440,Target_410,v100,z10,Marcador\WObj:=Workobject_3;

    ENDPROC
    PROC Path_210()
        MoveL Target_450,v100,z10,Marcador\WObj:=Workobject_3;
    ENDPROC
    PROC Path_220()
        MoveL Target_460,v100,z10,Marcador\WObj:=Workobject_3;
        MoveL Target_470,v100,z10,Marcador\WObj:=Workobject_3;
    ENDPROC
    PROC Path_230()
        MoveJ Target_470,v100,z10,Marcador\WObj:=Workobject_3;
        MoveJ Target_480,v100,z10,Marcador\WObj:=Workobject_3;
    ENDPROC
    PROC Path_240()
        MoveJ Target_470,v100,z10,Marcador\WObj:=Workobject_3;
        MoveL Target_490,v100,z10,Marcador\WObj:=Workobject_3;
        MoveL Target_500,v100,z10,Marcador\WObj:=Workobject_3;
    ENDPROC
    PROC Path_250()
        MoveL Target_520,v100,z10,Marcador\WObj:=Workobject_3;
        MoveL Target_510,v100,z10,Marcador\WObj:=Workobject_3;
    ENDPROC
    PROC Path_260()
        MoveL Target_530,v100,z10,Marcador\WObj:=Workobject_3;
        MoveL Target_540,v100,z10,Marcador\WObj:=Workobject_3;

    ENDPROC
    PROC Path_270()
        MoveL Target_540,v100,z10,Marcador\WObj:=Workobject_3;
        MoveL Target_550,v100,z10,Marcador\WObj:=Workobject_3;

    ENDPROC
    PROC Path_280()
        MoveL Target_550,v100,z10,Marcador\WObj:=Workobject_3;
        MoveL Target_560,v100,z10,Marcador\WObj:=Workobject_3;

    ENDPROC
    PROC Path_290()
        MoveL Target_560,v100,z10,Marcador\WObj:=Workobject_3;
        MoveL Target_570,v100,z10,Marcador\WObj:=Workobject_3;
        MoveL Target_560,v100,z10,Marcador\WObj:=Workobject_3;

    ENDPROC
    PROC Path_300()
        MoveL Target_580,v100,z10,Marcador\WObj:=Workobject_3;
        MoveL Target_590,v100,z10,Marcador\WObj:=Workobject_3;
    ENDPROC
    PROC Path_310()
        MoveL Target_600,v100,z10,Marcador\WObj:=Workobject_3;
        MoveL Target_610,v100,z10,Marcador\WObj:=Workobject_3;
        MoveL Target_620,v100,z10,Marcador\WObj:=Workobject_3;
        MoveL Target_630,v100,z10,Marcador\WObj:=Workobject_3;
        MoveL Target_640,v100,z10,Marcador\WObj:=Workobject_3;
        MoveL Target_650,v100,z10,Marcador\WObj:=Workobject_3;
        MoveL Target_660,v100,z10,Marcador\WObj:=Workobject_3;
    ENDPROC
    PROC Path_320()
        MoveL Target_670,v100,z10,Marcador\WObj:=Workobject_3;
        MoveC Target_680,Target_690,v100,z10,Marcador\WObj:=Workobject_3;
    ENDPROC
    PROC Path_330()
        MoveL Target_690,v100,z10,Marcador\WObj:=Workobject_3;
        MoveL Target_700,v100,z10,Marcador\WObj:=Workobject_3;
    ENDPROC
    PROC Path_340()
        MoveL Target_710,v100,z10,Marcador\WObj:=Workobject_3;
        MoveC Target_720,Target_730,v100,z10,Marcador\WObj:=Workobject_3;
     
    ENDPROC
    PROC Path_350()
        MoveL Target_730,v100,z10,Marcador\WObj:=Workobject_3;
        MoveC Target_740,Target_710,v100,z10,Marcador\WObj:=Workobject_3;
    ENDPROC
    PROC Path_360()

    ENDPROC
    PROC Path_370()
        MoveL Target_750,v100,z10,Marcador\WObj:=Workobject_3;
        MoveL Target_760,v100,z10,Marcador\WObj:=Workobject_3;
        MoveL Target_770,v100,z10,Marcador\WObj:=Workobject_3;
        MoveL Target_780,v100,z10,Marcador\WObj:=Workobject_3;
        MoveL Target_790,v100,z10,Marcador\WObj:=Workobject_3;
        MoveL Target_800,v100,z10,Marcador\WObj:=Workobject_3;
        MoveL Target_810,v100,z10,Marcador\WObj:=Workobject_3;
        MoveL Target_820,v100,z10,Marcador\WObj:=Workobject_3;
        MoveL Target_830,v100,z10,Marcador\WObj:=Workobject_3;
        MoveL Target_840,v100,z10,Marcador\WObj:=Workobject_3;
        MoveL Target_850,v100,z10,Marcador\WObj:=Workobject_3;
        MoveL Target_860,v100,z10,Marcador\WObj:=Workobject_3;
        MoveL Target_870,v100,z10,Marcador\WObj:=Workobject_3;
        MoveL Target_880,v100,z10,Marcador\WObj:=Workobject_3;
        MoveL Target_890,v100,z10,Marcador\WObj:=Workobject_3;
        MoveL Target_900,v100,z10,Marcador\WObj:=Workobject_3;
        MoveL Target_910,v100,z10,Marcador\WObj:=Workobject_3;
        MoveL Target_920,v100,z10,Marcador\WObj:=Workobject_3;
        MoveL Target_930,v100,z10,Marcador\WObj:=Workobject_3;
    ENDPROC
    PROC Path_380()
        MoveL Target_940,v100,z10,Marcador\WObj:=Workobject_3;
        MoveL Target_950,v100,z10,Marcador\WObj:=Workobject_3;
        MoveL Target_960,v100,z10,Marcador\WObj:=Workobject_3;
        MoveL Target_970,v100,z10,Marcador\WObj:=Workobject_3;
        MoveL Target_980,v100,z10,Marcador\WObj:=Workobject_3;
        MoveL Target_990,v100,z10,Marcador\WObj:=Workobject_3;
        MoveL Target_1000,v100,z10,Marcador\WObj:=Workobject_3;
    ENDPROC
    PROC Path_390()
        MoveL Target_1010,v100,z10,Marcador\WObj:=Workobject_3;
        MoveL Target_1020,v100,z10,Marcador\WObj:=Workobject_3;
        MoveL Target_1030,v100,z10,Marcador\WObj:=Workobject_3;
        MoveL Target_1040,v100,z10,Marcador\WObj:=Workobject_3;
        MoveL Target_1050,v100,z10,Marcador\WObj:=Workobject_3;
        MoveL Target_1060,v100,z10,Marcador\WObj:=Workobject_3;
        MoveL Target_1070,v100,z10,Marcador\WObj:=Workobject_3;
    ENDPROC
    PROC Path_400()
        MoveL Target_1090,v100,z10,Marcador\WObj:=Workobject_3;
        MoveL Target_1100,v100,z10,Marcador\WObj:=Workobject_3;
        MoveL Target_1110,v100,z10,Marcador\WObj:=Workobject_3;
        MoveL Target_1120,v100,z10,Marcador\WObj:=Workobject_3;
        MoveL Target_1130,v100,z10,Marcador\WObj:=Workobject_3;
        MoveL Target_1140,v100,z10,Marcador\WObj:=Workobject_3;
        MoveL Target_1150,v100,z10,Marcador\WObj:=Workobject_3;
        MoveL Target_1160,v100,z10,Marcador\WObj:=Workobject_3;
        MoveL Target_1170,v100,z10,Marcador\WObj:=Workobject_3;
        MoveL Target_1180,v100,z10,Marcador\WObj:=Workobject_3;
        MoveL Target_1190,v100,z10,Marcador\WObj:=Workobject_3;
        MoveL Target_1200,v100,z10,Marcador\WObj:=Workobject_3;
        MoveL Target_1210,v100,z10,Marcador\WObj:=Workobject_3;
        MoveL Target_1220,v100,z10,Marcador\WObj:=Workobject_3;
        MoveL Target_1230,v100,z10,Marcador\WObj:=Workobject_3;
        MoveL Target_1240,v100,z10,Marcador\WObj:=Workobject_3;
        MoveL Target_1250,v100,z10,Marcador\WObj:=Workobject_3;
        MoveL Target_1260,v100,z10,Marcador\WObj:=Workobject_3;
        MoveL Target_1270,v100,z10,Marcador\WObj:=Workobject_3;
        MoveL Target_1280,v100,z10,Marcador\WObj:=Workobject_3;
        MoveL Target_1290,v100,z10,Marcador\WObj:=Workobject_3;
    ENDPROC
    PROC Path_410()
        MoveL Target_1300,v100,z10,Marcador\WObj:=Workobject_3;
        MoveL Target_1310,v100,z10,Marcador\WObj:=Workobject_3;
        MoveL Target_1320,v100,z10,Marcador\WObj:=Workobject_3;
        MoveL Target_1330,v100,z10,Marcador\WObj:=Workobject_3;
        MoveL Target_1340,v100,z10,Marcador\WObj:=Workobject_3;
        MoveL Target_1350,v100,z10,Marcador\WObj:=Workobject_3;
        MoveL Target_1360,v100,z10,Marcador\WObj:=Workobject_3;
        MoveL Target_1370,v100,z10,Marcador\WObj:=Workobject_3;
        MoveL Target_1380,v100,z10,Marcador\WObj:=Workobject_3;
        MoveL Target_1390,v100,z10,Marcador\WObj:=Workobject_3;
        MoveL Target_1400,v100,z10,Marcador\WObj:=Workobject_3;
        MoveL Target_1410,v100,z10,Marcador\WObj:=Workobject_3;
        MoveL Target_1420,v100,z10,Marcador\WObj:=Workobject_3;
        MoveL Target_1430,v100,z10,Marcador\WObj:=Workobject_3;
    ENDPROC
    PROC Path_420()
        MoveL Target_1440,v100,z10,Marcador\WObj:=Workobject_3;
        MoveL Target_1450,v100,z10,Marcador\WObj:=Workobject_3;
        MoveL Target_1460,v100,z10,Marcador\WObj:=Workobject_3;
        MoveL Target_1470,v100,z10,Marcador\WObj:=Workobject_3;
        MoveL Target_1480,v100,z10,Marcador\WObj:=Workobject_3;
        MoveL Target_1490,v100,z10,Marcador\WObj:=Workobject_3;
        MoveL Target_1500,v100,z10,Marcador\WObj:=Workobject_3;
        MoveL Target_1510,v100,z10,Marcador\WObj:=Workobject_3;
        MoveL Target_1520,v100,z10,Marcador\WObj:=Workobject_3;
        MoveL Target_1530,v100,z10,Marcador\WObj:=Workobject_3;
        MoveL Target_1540,v100,z10,Marcador\WObj:=Workobject_3;
        MoveL Target_1550,v100,z10,Marcador\WObj:=Workobject_3;
        MoveL Target_1560,v100,z10,Marcador\WObj:=Workobject_3;
        MoveL Target_1570,v100,z10,Marcador\WObj:=Workobject_3;
        MoveL Target_1580,v100,z10,Marcador\WObj:=Workobject_3;
        MoveL Target_1590,v100,z10,Marcador\WObj:=Workobject_3;
        MoveL Target_1600,v100,z10,Marcador\WObj:=Workobject_3;
        MoveL Target_1610,v100,z10,Marcador\WObj:=Workobject_3;
        MoveL Target_1620,v100,z10,Marcador\WObj:=Workobject_3;
        MoveL Target_1630,v100,z10,Marcador\WObj:=Workobject_3;
        MoveL Target_1640,v100,z10,Marcador\WObj:=Workobject_3;
        MoveL Target_1650,v100,z10,Marcador\WObj:=Workobject_3;
    ENDPROC
    PROC Path_430()
        MoveL Target_1660,v100,z10,Marcador\WObj:=Workobject_3;
        MoveL Target_1670,v100,z10,Marcador\WObj:=Workobject_3;
        MoveL Target_1680,v100,z10,Marcador\WObj:=Workobject_3;
        MoveL Target_1690,v100,z10,Marcador\WObj:=Workobject_3;
        MoveL Target_1700,v100,z10,Marcador\WObj:=Workobject_3;
        MoveL Target_1710,v100,z10,Marcador\WObj:=Workobject_3;
        MoveL Target_1720,v100,z10,Marcador\WObj:=Workobject_3;
        MoveL Target_1730,v100,z10,Marcador\WObj:=Workobject_3;
        MoveL Target_1740,v100,z10,Marcador\WObj:=Workobject_3;
        MoveL Target_1750,v100,z10,Marcador\WObj:=Workobject_3;
        MoveL Target_1760,v100,z10,Marcador\WObj:=Workobject_3;
        MoveL Target_1770,v100,z10,Marcador\WObj:=Workobject_3;
        MoveL Target_1780,v100,z10,Marcador\WObj:=Workobject_3;
        MoveL Target_1790,v100,z10,Marcador\WObj:=Workobject_3;
        MoveL Target_1800,v100,z10,Marcador\WObj:=Workobject_3;
        MoveL Target_1810,v100,z10,Marcador\WObj:=Workobject_3;
        MoveL Target_1820,v100,z10,Marcador\WObj:=Workobject_3;
        MoveL Target_1830,v100,z10,Marcador\WObj:=Workobject_3;
        MoveL Target_1840,v100,z10,Marcador\WObj:=Workobject_3;
        MoveL Target_1850,v100,z10,Marcador\WObj:=Workobject_3;
        MoveL Target_1860,v100,z10,Marcador\WObj:=Workobject_3;
        MoveL Target_1870,v100,z10,Marcador\WObj:=Workobject_3;
        MoveL Target_1880,v100,z10,Marcador\WObj:=Workobject_3;
        MoveL Target_1890,v100,z10,Marcador\WObj:=Workobject_3;
        MoveL Target_1900,v100,z10,Marcador\WObj:=Workobject_3;
        MoveL Target_1910,v100,z10,Marcador\WObj:=Workobject_3;
        MoveL Target_1920,v100,z10,Marcador\WObj:=Workobject_3;
        MoveL Target_1930,v100,z10,Marcador\WObj:=Workobject_3;
        MoveL Target_1940,v100,z10,Marcador\WObj:=Workobject_3;
        MoveL Target_1950,v100,z10,Marcador\WObj:=Workobject_3;
        MoveL Target_1960,v100,z10,Marcador\WObj:=Workobject_3;
        MoveL Target_1970,v100,z10,Marcador\WObj:=Workobject_3;
        MoveL Target_1980,v100,z10,Marcador\WObj:=Workobject_3;
        MoveL Target_1990,v100,z10,Marcador\WObj:=Workobject_3;
        MoveL Target_2000,v100,z10,Marcador\WObj:=Workobject_3;
        MoveL Target_2010,v100,z10,Marcador\WObj:=Workobject_3;
        MoveL Target_2020,v100,z10,Marcador\WObj:=Workobject_3;
        MoveL Target_2030,v100,z10,Marcador\WObj:=Workobject_3;
        MoveL Target_2040,v100,z10,Marcador\WObj:=Workobject_3;
    ENDPROC
    PROC Path_440()
        MoveL Target_2050,v100,z10,Marcador\WObj:=Workobject_3;
        MoveL Target_2060,v100,z10,Marcador\WObj:=Workobject_3;
        MoveL Target_2070,v100,z10,Marcador\WObj:=Workobject_3;
        MoveL Target_2080,v100,z10,Marcador\WObj:=Workobject_3;
        MoveL Target_2090,v100,z10,Marcador\WObj:=Workobject_3;
        MoveL Target_2100,v100,z10,Marcador\WObj:=Workobject_3;
        MoveL Target_2110,v100,z10,Marcador\WObj:=Workobject_3;
        MoveL Target_2120,v100,z10,Marcador\WObj:=Workobject_3;
        MoveL Target_2130,v100,z10,Marcador\WObj:=Workobject_3;
        MoveL Target_2140,v100,z10,Marcador\WObj:=Workobject_3;
        MoveL Target_2150,v100,z10,Marcador\WObj:=Workobject_3;
    ENDPROC
    PROC Path_450()
        MoveL Target_2160,v100,z10,Marcador\WObj:=Workobject_3;
        MoveL Target_2170,v100,z10,Marcador\WObj:=Workobject_3;
        MoveL Target_2180,v100,z10,Marcador\WObj:=Workobject_3;
        MoveL Target_2190,v100,z10,Marcador\WObj:=Workobject_3;
        MoveL Target_2200,v100,z10,Marcador\WObj:=Workobject_3;
        MoveL Target_2210,v100,z10,Marcador\WObj:=Workobject_3;
        MoveL Target_2220,v100,z10,Marcador\WObj:=Workobject_3;
        MoveL Target_2230,v100,z10,Marcador\WObj:=Workobject_3;
        MoveL Target_2240,v100,z10,Marcador\WObj:=Workobject_3;
        MoveL Target_2250,v100,z10,Marcador\WObj:=Workobject_3;
    ENDPROC
    PROC Path_460()
        MoveL Target_2260,v100,z10,Marcador\WObj:=Workobject_3;
        MoveL Target_2270,v100,z10,Marcador\WObj:=Workobject_3;
        MoveL Target_2280,v100,z10,Marcador\WObj:=Workobject_3;
        MoveL Target_2290,v100,z10,Marcador\WObj:=Workobject_3;
        MoveL Target_2300,v100,z10,Marcador\WObj:=Workobject_3;
        MoveL Target_2310,v100,z10,Marcador\WObj:=Workobject_3;
        MoveL Target_2320,v100,z10,Marcador\WObj:=Workobject_3;
    ENDPROC
    PROC Path_470()
        MoveL Target_2330,v100,z10,Marcador\WObj:=Workobject_3;
        MoveL Target_2340,v100,z10,Marcador\WObj:=Workobject_3;
        MoveL Target_2350,v100,z10,Marcador\WObj:=Workobject_3;
        MoveL Target_2360,v100,z10,Marcador\WObj:=Workobject_3;
        MoveL Target_2370,v100,z10,Marcador\WObj:=Workobject_3;
        MoveL Target_2380,v100,z10,Marcador\WObj:=Workobject_3;
        MoveL Target_2390,v100,z10,Marcador\WObj:=Workobject_3;
        MoveL Target_2400,v100,z10,Marcador\WObj:=Workobject_3;
        MoveL Target_2410,v100,z10,Marcador\WObj:=Workobject_3;
        MoveL Target_2420,v100,z10,Marcador\WObj:=Workobject_3;
        MoveL Target_2430,v100,z10,Marcador\WObj:=Workobject_3;
        MoveL Target_2440,v100,z10,Marcador\WObj:=Workobject_3;
    ENDPROC
    PROC Path_480()
        MoveL Target_2450,v100,z10,Marcador\WObj:=Workobject_3;
        MoveL Target_2460,v100,z10,Marcador\WObj:=Workobject_3;
        MoveL Target_2470,v100,z10,Marcador\WObj:=Workobject_3;
        MoveL Target_2480,v100,z10,Marcador\WObj:=Workobject_3;
    ENDPROC
    PROC Path_490()
        MoveL Target_2490,v100,z10,Marcador\WObj:=Workobject_3;
        MoveL Target_2500,v100,z10,Marcador\WObj:=Workobject_3;
        MoveL Target_2510,v100,z10,Marcador\WObj:=Workobject_3;
        MoveL Target_2520,v100,z10,Marcador\WObj:=Workobject_3;
        MoveL Target_2530,v100,z10,Marcador\WObj:=Workobject_3;
        MoveL Target_2540,v100,z10,Marcador\WObj:=Workobject_3;
        MoveL Target_2550,v100,z10,Marcador\WObj:=Workobject_3;
        MoveL Target_2560,v100,z10,Marcador\WObj:=Workobject_3;
        MoveL Target_2570,v100,z10,Marcador\WObj:=Workobject_3;
        MoveL Target_2580,v100,z10,Marcador\WObj:=Workobject_3;
    ENDPROC
    PROC Path_500()
        MoveL Target_2590,v100,z10,Marcador\WObj:=Workobject_3;
        MoveL Target_2600,v100,z10,Marcador\WObj:=Workobject_3;
        MoveL Target_2610,v100,z10,Marcador\WObj:=Workobject_3;
        MoveL Target_2620,v100,z10,Marcador\WObj:=Workobject_3;
        MoveL Target_2630,v100,z10,Marcador\WObj:=Workobject_3;
        MoveL Target_2640,v100,z10,Marcador\WObj:=Workobject_3;
        MoveL Target_2650,v100,z10,Marcador\WObj:=Workobject_3;
        MoveL Target_2660,v100,z10,Marcador\WObj:=Workobject_3;
        MoveL Target_2670,v100,z10,Marcador\WObj:=Workobject_3;
        MoveL Target_2680,v100,z10,Marcador\WObj:=Workobject_3;
        MoveL Target_2690,v100,z10,Marcador\WObj:=Workobject_3;
        MoveL Target_2700,v100,z10,Marcador\WObj:=Workobject_3;
        MoveL Target_2710,v100,z10,Marcador\WObj:=Workobject_3;
        MoveL Target_2720,v100,z10,Marcador\WObj:=Workobject_3;
        MoveL Target_2730,v100,z10,Marcador\WObj:=Workobject_3;
        MoveL Target_2740,v100,z10,Marcador\WObj:=Workobject_3;
        MoveL Target_2750,v100,z10,Marcador\WObj:=Workobject_3;
        MoveL Target_2760,v100,z10,Marcador\WObj:=Workobject_3;
        MoveL Target_2770,v100,z10,Marcador\WObj:=Workobject_3;
        MoveL Target_2780,v100,z10,Marcador\WObj:=Workobject_3;
        MoveL Target_2790,v100,z10,Marcador\WObj:=Workobject_3;
    ENDPROC
    PROC Path_510()
        MoveL Target_2800,v100,z10,Marcador\WObj:=Workobject_3;
        MoveL Target_2810,v100,z10,Marcador\WObj:=Workobject_3;
        MoveL Target_2820,v100,z10,Marcador\WObj:=Workobject_3;
        MoveL Target_2830,v100,z10,Marcador\WObj:=Workobject_3;
    ENDPROC
    PROC Path_520()
        MoveL Target_2840,v100,z10,Marcador\WObj:=Workobject_3;
        MoveL Target_2850,v100,z10,Marcador\WObj:=Workobject_3;
        MoveL Target_2860,v100,z10,Marcador\WObj:=Workobject_3;
        MoveL Target_2870,v100,z10,Marcador\WObj:=Workobject_3;
    ENDPROC
    PROC Path_530()
        MoveL Target_2880,v100,z10,Marcador\WObj:=Workobject_3;
        MoveL Target_2890,v100,z10,Marcador\WObj:=Workobject_3;
        MoveL Target_2900,v100,z10,Marcador\WObj:=Workobject_3;
        MoveL Target_2910,v100,z10,Marcador\WObj:=Workobject_3;
        MoveL Target_2920,v100,z10,Marcador\WObj:=Workobject_3;
    ENDPROC
    PROC Path_540()
        MoveL Target_2930,v100,z10,Marcador\WObj:=Workobject_3;
        MoveL Target_2940,v100,z10,Marcador\WObj:=Workobject_3;
        MoveL Target_2950,v100,z10,Marcador\WObj:=Workobject_3;
        MoveL Target_2960,v100,z10,Marcador\WObj:=Workobject_3;
    ENDPROC
    PROC Path_550()
        MoveL Target_2970,v100,z10,Marcador\WObj:=Workobject_3;
        MoveL Target_2980,v100,z10,Marcador\WObj:=Workobject_3;
        MoveL Target_2990,v100,z10,Marcador\WObj:=Workobject_3;
        MoveL Target_3000,v100,z10,Marcador\WObj:=Workobject_3;
        MoveL Target_3010,v100,z10,Marcador\WObj:=Workobject_3;
    ENDPROC
    PROC Path_560()
        MoveL Target_3020,v100,z10,Marcador\WObj:=Workobject_3;
        MoveL Target_3030,v100,z10,Marcador\WObj:=Workobject_3;
        MoveL Target_3040,v100,z10,Marcador\WObj:=Workobject_3;
        MoveL Target_3050,v100,z10,Marcador\WObj:=Workobject_3;
    ENDPROC
    PROC Path_570()
        MoveL Target_3060,v100,z10,Marcador\WObj:=Workobject_3;
        MoveL Target_3070,v100,z10,Marcador\WObj:=Workobject_3;
        MoveL Target_3080,v100,z10,Marcador\WObj:=Workobject_3;
        MoveL Target_3090,v100,z10,Marcador\WObj:=Workobject_3;
        MoveL Target_3100,v100,z10,Marcador\WObj:=Workobject_3;
        MoveL Target_3110,v100,z10,Marcador\WObj:=Workobject_3;
        MoveL Target_3120,v100,z10,Marcador\WObj:=Workobject_3;
        MoveL Target_3130,v100,z10,Marcador\WObj:=Workobject_3;
        MoveL Target_3140,v100,z10,Marcador\WObj:=Workobject_3;
        MoveL Target_3150,v100,z10,Marcador\WObj:=Workobject_3;
        MoveL Target_3160,v100,z10,Marcador\WObj:=Workobject_3;
        MoveL Target_3170,v100,z10,Marcador\WObj:=Workobject_3;
        MoveL Target_3180,v100,z10,Marcador\WObj:=Workobject_3;
    ENDPROC
    PROC Path_580()
        MoveL Target_3190,v100,z10,Marcador\WObj:=Workobject_3;
        MoveL Target_3200,v100,z10,Marcador\WObj:=Workobject_3;
        MoveL Target_3210,v100,z10,Marcador\WObj:=Workobject_3;
        MoveL Target_3220,v100,z10,Marcador\WObj:=Workobject_3;
        MoveL Target_3230,v100,z10,Marcador\WObj:=Workobject_3;
        MoveL Target_3240,v100,z10,Marcador\WObj:=Workobject_3;
        MoveL Target_3250,v100,z10,Marcador\WObj:=Workobject_3;
        MoveL Target_3260,v100,z10,Marcador\WObj:=Workobject_3;
        MoveL Target_3270,v100,z10,Marcador\WObj:=Workobject_3;
        MoveL Target_3280,v100,z10,Marcador\WObj:=Workobject_3;
        MoveL Target_3290,v100,z10,Marcador\WObj:=Workobject_3;
        MoveL Target_3300,v100,z10,Marcador\WObj:=Workobject_3;
        MoveL Target_3310,v100,z10,Marcador\WObj:=Workobject_3;
    ENDPROC
    PROC Path_590()
        MoveL Target_3320,v100,z10,Marcador\WObj:=Workobject_3;
        MoveL Target_3330,v100,z10,Marcador\WObj:=Workobject_3;
        MoveL Target_3340,v100,z10,Marcador\WObj:=Workobject_3;
        MoveL Target_3350,v100,z10,Marcador\WObj:=Workobject_3;
        MoveL Target_3360,v100,z10,Marcador\WObj:=Workobject_3;
        MoveL Target_3370,v100,z10,Marcador\WObj:=Workobject_3;
        MoveL Target_3380,v100,z10,Marcador\WObj:=Workobject_3;
        MoveL Target_3390,v100,z10,Marcador\WObj:=Workobject_3;
        MoveL Target_3400,v100,z10,Marcador\WObj:=Workobject_3;
    ENDPROC
    PROC Path_600()
        MoveL Target_3410,v100,z10,Marcador\WObj:=Workobject_3;
        MoveL Target_3420,v100,z10,Marcador\WObj:=Workobject_3;
        MoveL Target_3430,v100,z10,Marcador\WObj:=Workobject_3;
        MoveL Target_3440,v100,z10,Marcador\WObj:=Workobject_3;
    ENDPROC
    PROC Path_610()
        MoveL Target_3490,v100,z10,Marcador\WObj:=Workobject_3;
        MoveL Target_3500,v100,z10,Marcador\WObj:=Workobject_3;
        MoveL Target_3510,v100,z10,Marcador\WObj:=Workobject_3;
        MoveL Target_3520,v100,z10,Marcador\WObj:=Workobject_3;
    ENDPROC
    PROC Path_620()
        MoveL Target_3530,v100,z10,Marcador\WObj:=Workobject_3;
        MoveL Target_3540,v100,z10,Marcador\WObj:=Workobject_3;
        MoveL Target_3550,v100,z10,Marcador\WObj:=Workobject_3;
        MoveL Target_3560,v100,z10,Marcador\WObj:=Workobject_3;
    ENDPROC
    PROC Path_630()
        MoveL Target_3570,v100,z10,Marcador\WObj:=Workobject_3;
        MoveL Target_3580,v100,z10,Marcador\WObj:=Workobject_3;
        MoveL Target_3590,v100,z10,Marcador\WObj:=Workobject_3;
    ENDPROC
    PROC Path_640()
        MoveL Target_3600,v100,z10,Marcador\WObj:=Workobject_3;
        MoveL Target_3610,v100,z10,Marcador\WObj:=Workobject_3;
        MoveL Target_3620,v100,z10,Marcador\WObj:=Workobject_3;
        MoveL Target_3630,v100,z10,Marcador\WObj:=Workobject_3;
        MoveL Target_3640,v100,z10,Marcador\WObj:=Workobject_3;
    ENDPROC
    PROC Path_650()
        MoveL Target_3650,v100,z10,Marcador\WObj:=Workobject_3;
        MoveL Target_3660,v100,z10,Marcador\WObj:=Workobject_3;
        MoveL Target_3670,v100,z10,Marcador\WObj:=Workobject_3;
        MoveL Target_3680,v100,z10,Marcador\WObj:=Workobject_3;
        MoveL Target_3690,v100,z10,Marcador\WObj:=Workobject_3;
    ENDPROC
    PROC Path_660()
        MoveL Target_3700,v100,z10,Marcador\WObj:=Workobject_3;
        MoveL Target_3710,v100,z10,Marcador\WObj:=Workobject_3;
        MoveL Target_3720,v100,z10,Marcador\WObj:=Workobject_3;
        MoveL Target_3730,v100,z10,Marcador\WObj:=Workobject_3;
        MoveL Target_3740,v100,z10,Marcador\WObj:=Workobject_3;
        MoveL Target_3750,v100,z10,Marcador\WObj:=Workobject_3;
    ENDPROC
    PROC Path_670()
        MoveL Target_3760,v100,z10,Marcador\WObj:=Workobject_3;
        MoveL Target_3770,v100,z10,Marcador\WObj:=Workobject_3;
        MoveL Target_3780,v100,z10,Marcador\WObj:=Workobject_3;
        MoveL Target_3790,v100,z10,Marcador\WObj:=Workobject_3;
        MoveL Target_3800,v100,z10,Marcador\WObj:=Workobject_3;
    ENDPROC
    PROC Path_680()
        MoveL Target_3810,v100,z10,Marcador\WObj:=Workobject_3;
        MoveL Target_3820,v100,z10,Marcador\WObj:=Workobject_3;
        MoveL Target_3830,v100,z10,Marcador\WObj:=Workobject_3;
        MoveL Target_3840,v100,z10,Marcador\WObj:=Workobject_3;
        MoveL Target_3850,v100,z10,Marcador\WObj:=Workobject_3;
        MoveL Target_3860,v100,z10,Marcador\WObj:=Workobject_3;
    ENDPROC
    PROC Path_690()
        MoveL Target_3870,v100,z10,Marcador\WObj:=Workobject_3;
    ENDPROC
    PROC Path_700()
        MoveL Target_3880,v100,z10,Marcador\WObj:=Workobject_3;
        MoveL Target_180,v100,z10,Marcador\WObj:=Workobject_3;
    ENDPROC
    PROC Path_710()
        MoveL Target_3900,v100,z10,Marcador\WObj:=Workobject_3;
        MoveL Target_3890,v100,z10,Marcador\WObj:=Workobject_3;
    ENDPROC
    PROC Path_720()
        MoveL Target_3910,v100,z10,Marcador\WObj:=Workobject_3;
        MoveL Target_80,v100,z10,Marcador\WObj:=Workobject_3;
    ENDPROC
    PROC Path_730()
        MoveL Target_100,v100,z10,Marcador\WObj:=Workobject_3;
        MoveL Target_3920,v100,z10,Marcador\WObj:=Workobject_3;
    ENDPROC
    PROC Path_740()
        MoveL Target_3930,v100,z10,Marcador\WObj:=Workobject_3;
    ENDPROC
    PROC Path_750()
        MoveL Target_3950,v100,z10,Marcador\WObj:=Workobject_3;
        MoveL Target_360,v100,z10,Marcador\WObj:=Workobject_3;
    ENDPROC
    PROC Path_760()
        MoveL Target_380,v100,z10,Marcador\WObj:=Workobject_3;
        MoveL Target_3940,v100,z10,Marcador\WObj:=Workobject_3;
    ENDPROC
    PROC Path_770()
        MoveJ Target_Mantenimiento,v100,z10,Marcador\WObj:=Workobject_3;
    ENDPROC

ENDMODULE
